; generated by Slic3r 1.0.0RC2 on 2014-11-13 at 17:07:28

; layer_height = 0.30
; perimeters = 3
; top_solid_layers = 3
; bottom_solid_layers = 3
; fill_density = 0.3
; perimeter_speed = 30
; infill_speed = 50
; travel_speed = 90
; nozzle_diameter = 0.5
; filament_diameter = 1.75
; extrusion_multiplier = 1
; perimeters extrusion width = 0.50mm
; infill extrusion width = 0.70mm
; solid infill extrusion width = 0.70mm
; top infill extrusion width = 0.70mm
; first layer extrusion width = 0.60mm

G21 ; set units to millimeters
M109 S200;set extruder temp and start heating
G28 X0 Y0 Z0;home X and Y and Z
G29 ;probe bed
G90; set absolute coordinates
G92 E0; reset extruder distance
G1 Z3 F3000; get out of the bed after probe
G1 X10 Y10 F3000 ; move to back right corner
G90 ; use absolute coordinates
G92 E0
M82 ; use absolute distances for extrusion
M106 S204
G1 F1800.000 E-4.50000
G92 E0
G1 Z0.300 F5400.000
G1 X43.020 Y43.180 F5400.000
G1 E4.50000 F1800.000
G1 X43.760 Y42.490 E4.57301 F630.000
G1 X44.410 Y41.960 E4.63353
G1 X44.940 Y41.580 E4.68059
G1 X45.630 Y41.140 E4.73964
G1 X46.510 Y40.680 E4.81129
G1 X47.110 Y40.410 E4.85877
G1 X47.870 Y40.120 E4.91746
G1 X48.810 Y39.830 E4.98845
G1 X49.440 Y39.680 E5.03518
G1 X50.430 Y39.510 E5.10766
G1 X51.350 Y39.430 E5.17430
G1 X134.000 Y39.420 E11.13821
G1 X134.800 Y39.550 E11.19670
G1 X135.520 Y39.910 E11.25478
G1 X136.090 Y40.480 E11.31295
G1 X136.450 Y41.200 E11.37104
G1 X136.580 Y42.000 E11.42952
G1 X136.580 Y84.000 E14.46018
G1 X136.450 Y84.800 E14.51867
G1 X136.080 Y85.520 E14.57708
G1 X135.510 Y86.090 E14.63525
G1 X99.510 Y112.090 E17.83961
G1 X98.790 Y112.450 E17.89770
G1 X98.000 Y112.580 E17.95547
G1 X68.000 Y112.580 E20.12023
G1 X66.970 Y112.360 E20.19623
G1 X66.110 Y111.750 E20.27231
G1 X42.460 Y86.200 E22.78456
G1 X41.960 Y85.580 E22.84203
G1 X41.580 Y85.050 E22.88909
G1 X41.030 Y84.170 E22.96397
G1 X40.740 Y83.610 E23.00948
G1 X40.410 Y82.880 E23.06729
G1 X40.060 Y81.950 E23.13899
G1 X39.830 Y81.180 E23.19698
G1 X39.680 Y80.550 E23.24371
G1 X39.540 Y79.730 E23.30374
G1 X39.450 Y78.890 E23.36470
G1 X39.420 Y78.080 E23.42318
G1 X39.420 Y51.920 E25.31086
G1 X39.450 Y51.100 E25.37007
G1 X39.540 Y50.260 E25.43103
G1 X39.680 Y49.440 E25.49105
G1 X39.830 Y48.810 E25.53778
G1 X40.060 Y48.040 E25.59577
G1 X40.410 Y47.110 E25.66747
G1 X40.760 Y46.350 E25.72785
G1 X41.130 Y45.660 E25.78435
G1 X41.480 Y45.090 E25.83261
G1 X42.070 Y44.270 E25.90551
G1 X42.490 Y43.760 E25.95318
G1 X42.961 Y43.244 E26.00361
G1 X43.760 Y42.490 F4320.000 E25.56886
G1 X44.410 Y41.960 F4320.000 E25.23688
G1 X44.940 Y41.580 F4320.000 E24.97874
G1 X45.630 Y41.140 F4320.000 E24.65481
G1 X46.510 Y40.680 F4320.000 E24.26175
G1 X47.110 Y40.410 F4320.000 E24.00131
G1 X47.870 Y40.120 F4320.000 E23.67932
G1 X48.810 Y39.830 F4320.000 E23.28994
G1 X49.440 Y39.680 F4320.000 E23.03359
G1 X50.430 Y39.510 F4320.000 E22.63598
G1 X51.350 Y39.430 F4320.000 E22.27044
G1 X52.719 Y39.430 F4320.000 E21.72861
G1 F1800.000 E21.50361
G92 E0
G1 X70.155 Y72.155 F5400.000
G1 E4.50000 F1800.000
G1 X70.444 Y71.919 E4.52690 F630.000
G1 X70.772 Y71.743 E4.55379
G1 X71.129 Y71.635 E4.58069
G1 X71.500 Y71.599 E4.60759
G1 X71.871 Y71.635 E4.63449
G1 X72.228 Y71.743 E4.66138
G1 X72.556 Y71.919 E4.68828
G1 X72.845 Y72.155 E4.71518
G1 X73.081 Y72.444 E4.74207
G1 X73.257 Y72.772 E4.76897
G1 X73.365 Y73.129 E4.79587
G1 X73.401 Y73.500 E4.82277
G1 X73.365 Y73.871 E4.84966
G1 X73.257 Y74.228 E4.87656
G1 X73.081 Y74.556 E4.90346
G1 X72.845 Y74.845 E4.93035
G1 X72.556 Y75.081 E4.95725
G1 X72.228 Y75.257 E4.98415
G1 X71.871 Y75.365 E5.01104
G1 X71.500 Y75.401 E5.03794
G1 X71.129 Y75.365 E5.06484
G1 X70.772 Y75.257 E5.09174
G1 X70.444 Y75.081 E5.11863
G1 X70.155 Y74.845 E5.14553
G1 X69.919 Y74.556 E5.17243
G1 X69.743 Y74.228 E5.19933
G1 X69.635 Y73.871 E5.22622
G1 X69.599 Y73.500 E5.25312
G1 X69.635 Y73.129 E5.28002
G1 X69.743 Y72.772 E5.30691
G1 X69.919 Y72.444 E5.33381
G1 X70.100 Y72.223 E5.35445
G1 X70.071 Y71.792 F5400.000
G1 X70.444 Y71.919 F4320.000 E5.19862
G1 X70.772 Y71.743 F4320.000 E5.05107
G1 X71.129 Y71.635 F4320.000 E4.90352
G1 X71.500 Y71.599 F4320.000 E4.75598
G1 X71.871 Y71.635 F4320.000 E4.60843
G1 X72.228 Y71.743 F4320.000 E4.46088
G1 X72.556 Y71.919 F4320.000 E4.31334
G1 X72.845 Y72.155 F4320.000 E4.16579
G1 X73.081 Y72.444 F4320.000 E4.01824
G1 X73.257 Y72.772 F4320.000 E3.87070
G1 X73.365 Y73.129 F4320.000 E3.72315
G1 X73.401 Y73.500 F4320.000 E3.57559
G1 X73.365 Y73.871 F4320.000 E3.42805
G1 X73.257 Y74.228 F4320.000 E3.28051
G1 X73.081 Y74.556 F4320.000 E3.13295
G1 X72.845 Y74.845 F4320.000 E2.98541
G1 X72.556 Y75.081 F4320.000 E2.83786
G1 X72.228 Y75.257 F4320.000 E2.69032
G1 X71.871 Y75.365 F4320.000 E2.54278
G1 X71.500 Y75.401 F4320.000 E2.39522
G1 X71.129 Y75.365 F4320.000 E2.24769
G1 X70.772 Y75.257 F4320.000 E2.10014
G1 X70.444 Y75.081 F4320.000 E1.95259
G1 X70.155 Y74.845 F4320.000 E1.80504
G1 X69.919 Y74.556 F4320.000 E1.65749
G1 X69.743 Y74.228 F4320.000 E1.50995
G1 X69.635 Y73.871 F4320.000 E1.36241
G1 X69.599 Y73.500 F4320.000 E1.21485
G1 X69.632 Y73.160 F4320.000 E1.07945
G1 F1800.000 E0.85445
G92 E0
G1 X71.500 Y102.599 F5400.000
G1 E4.50000 F1800.000
G1 X71.871 Y102.635 E4.52690 F630.000
G1 X72.228 Y102.743 E4.55379
G1 X72.556 Y102.919 E4.58069
G1 X72.845 Y103.155 E4.60759
G1 X73.081 Y103.444 E4.63449
G1 X73.257 Y103.772 E4.66138
G1 X73.365 Y104.129 E4.68828
G1 X73.401 Y104.500 E4.71518
G1 X73.365 Y104.871 E4.74208
G1 X73.257 Y105.228 E4.76897
G1 X73.081 Y105.556 E4.79587
G1 X72.845 Y105.845 E4.82276
G1 X72.556 Y106.081 E4.84966
G1 X72.228 Y106.257 E4.87656
G1 X71.871 Y106.365 E4.90346
G1 X71.500 Y106.401 E4.93036
G1 X71.129 Y106.365 E4.95725
G1 X70.772 Y106.257 E4.98415
G1 X70.444 Y106.081 E5.01104
G1 X70.155 Y105.845 E5.03794
G1 X69.919 Y105.556 E5.06484
G1 X69.743 Y105.228 E5.09174
G1 X69.635 Y104.871 E5.11863
G1 X69.599 Y104.500 E5.14553
G1 X69.635 Y104.129 E5.17243
G1 X69.743 Y103.772 E5.19932
G1 X69.919 Y103.444 E5.22622
G1 X70.155 Y103.155 E5.25312
G1 X70.444 Y102.919 E5.28002
G1 X70.772 Y102.743 E5.30691
G1 X71.129 Y102.635 E5.33381
G1 X71.414 Y102.607 E5.35445
G1 X71.697 Y102.282 F5400.000
G1 X71.946 Y101.480 F5400.000
G1 X71.500 Y101.436 E5.38676 F630.000
G1 X70.902 Y101.495 E5.43011
G1 X70.327 Y101.669 E5.47345
G1 X69.457 Y102.134 E5.54466
G1 X69.457 Y75.866 E7.44017
G1 X70.327 Y76.331 E7.51138
G1 X70.902 Y76.505 E7.55474
G1 X71.500 Y76.564 E7.59807
G1 X71.946 Y76.520 E7.63039
G1 X72.098 Y76.505 E7.64142
G1 X72.673 Y76.331 E7.68476
G1 X73.202 Y76.048 E7.72810
G1 X73.667 Y75.667 E7.77145
G1 X74.048 Y75.202 E7.81478
G1 X74.331 Y74.673 E7.85813
G1 X74.505 Y74.098 E7.90147
G1 X74.564 Y73.500 E7.94481
G1 X74.505 Y72.902 E7.98816
G1 X74.331 Y72.327 E8.03151
G1 X74.048 Y71.798 E8.07485
G1 X73.667 Y71.333 E8.11820
G1 X73.321 Y71.049 E8.15051
G1 X73.202 Y70.952 E8.16154
G1 X72.673 Y70.669 E8.20489
G1 X72.098 Y70.495 E8.24823
G1 X71.500 Y70.436 E8.29157
G1 X70.902 Y70.495 E8.33491
G1 X70.327 Y70.669 E8.37826
G1 X69.457 Y71.134 E8.44947
G1 X69.457 Y69.457 E8.57050
G1 X96.543 Y69.457 E10.52498
G1 X96.543 Y108.543 E13.34536
G1 X69.457 Y108.543 E15.29984
G1 X69.457 Y106.866 E15.42087
G1 X70.327 Y107.331 E15.49208
G1 X70.902 Y107.505 E15.53542
G1 X71.500 Y107.564 E15.57876
G1 X72.098 Y107.505 E15.62211
G1 X72.673 Y107.331 E15.66545
G1 X73.202 Y107.048 E15.70880
G1 X73.667 Y106.667 E15.75215
G1 X74.048 Y106.202 E15.79549
G1 X74.331 Y105.673 E15.83883
G1 X74.505 Y105.098 E15.88216
G1 X74.564 Y104.500 E15.92552
G1 X74.505 Y103.902 E15.96886
G1 X74.331 Y103.327 E16.01221
G1 X74.048 Y102.798 E16.05555
G1 X73.667 Y102.333 E16.09889
G1 X73.202 Y101.952 E16.14224
G1 X72.673 Y101.669 E16.18559
G1 X72.032 Y101.488 E16.23361
G1 X71.984 Y102.065 F5400.000
G1 X71.500 Y102.017 E16.26873 F630.000
G1 X71.016 Y102.065 E16.30386
G1 X70.550 Y102.206 E16.33898
G1 X70.121 Y102.436 E16.37410
G1 X69.744 Y102.744 E16.40921
G1 X69.436 Y103.121 E16.44434
G1 X69.104 Y103.742 E16.49515
G1 X68.879 Y103.685 E16.51190
G1 X68.879 Y74.315 E18.63124
G1 X69.104 Y74.258 E18.64799
G1 X69.436 Y74.879 E18.69881
G1 X69.744 Y75.256 E18.73392
G1 X70.121 Y75.564 E18.76904
G1 X70.550 Y75.794 E18.80417
G1 X71.016 Y75.935 E18.83929
G1 X71.500 Y75.983 E18.87440
G1 X71.984 Y75.935 E18.90953
G1 X72.450 Y75.794 E18.94465
G1 X72.879 Y75.564 E18.97977
G1 X73.256 Y75.256 E19.01489
G1 X73.564 Y74.879 E19.05000
G1 X73.794 Y74.450 E19.08513
G1 X73.935 Y73.984 E19.12025
G1 X73.983 Y73.500 E19.15537
G1 X73.935 Y73.016 E19.19049
G1 X73.794 Y72.550 E19.22561
G1 X73.564 Y72.121 E19.26073
G1 X73.256 Y71.744 E19.29585
G1 X72.879 Y71.436 E19.33097
G1 X72.450 Y71.206 E19.36609
G1 X71.984 Y71.065 E19.40122
G1 X71.500 Y71.017 E19.43634
G1 X71.016 Y71.065 E19.47145
G1 X70.550 Y71.206 E19.50658
G1 X70.121 Y71.436 E19.54170
G1 X69.744 Y71.744 E19.57682
G1 X69.436 Y72.121 E19.61194
G1 X69.104 Y72.742 E19.66275
G1 X68.879 Y72.685 E19.67950
G1 X68.879 Y68.879 E19.95419
G1 X97.121 Y68.879 E21.99216
G1 X97.121 Y109.121 E24.89604
G1 X68.879 Y109.121 E26.93401
G1 X68.879 Y105.315 E27.20870
G1 X69.104 Y105.258 E27.22544
G1 X69.436 Y105.879 E27.27626
G1 X69.744 Y106.256 E27.31138
G1 X70.121 Y106.564 E27.34650
G1 X70.550 Y106.794 E27.38162
G1 X71.016 Y106.935 E27.41674
G1 X71.500 Y106.983 E27.45186
G1 X71.984 Y106.935 E27.48698
G1 X72.450 Y106.794 E27.52210
G1 X72.879 Y106.564 E27.55722
G1 X73.256 Y106.256 E27.59235
G1 X73.564 Y105.879 E27.62746
G1 X73.794 Y105.450 E27.66258
G1 X73.935 Y104.984 E27.69770
G1 X73.983 Y104.500 E27.73283
G1 X73.935 Y104.016 E27.76795
G1 X73.794 Y103.550 E27.80307
G1 X73.564 Y103.121 E27.83819
G1 X73.256 Y102.744 E27.87331
G1 X72.879 Y102.436 E27.90843
G1 X72.450 Y102.206 E27.94355
G1 X72.067 Y102.090 E27.97241
G1 X71.500 Y102.017 F4320.000 E27.74595
G1 X71.016 Y102.065 F4320.000 E27.55326
G1 X70.550 Y102.206 F4320.000 E27.36062
G1 X70.121 Y102.436 F4320.000 E27.16797
G1 X69.744 Y102.744 F4320.000 E26.97532
G1 X69.436 Y103.121 F4320.000 E26.78265
G1 X69.104 Y103.742 F4320.000 E26.50391
G1 X68.879 Y103.685 F4320.000 E26.41205
G1 X68.879 Y96.827 F4320.000 E23.69741
G1 F1800.000 E23.47241
G92 E0
G1 X68.300 Y109.700 F5400.000
G1 E4.50000 F1800.000
G1 X68.300 Y68.300 E7.48737 F504.000
G1 X97.700 Y68.300 E9.60883
G1 X97.700 Y109.700 E12.59620
G1 X68.387 Y109.700 E14.71141
G1 X68.589 Y109.199 F5400.000
G1 X68.513 Y98.399 F4320.000 E10.43641
G1 F1800.000 E10.21141
G92 E0
G1 X74.107 Y59.015 F5400.000
G1 E4.50000 F1800.000
G1 X69.979 Y51.864 E5.09582 F630.000
G1 X73.665 Y49.735 E5.40301
G1 X74.581 Y51.321 E5.53512
G1 X74.821 Y50.683 E5.58428
G1 X75.020 Y50.279 E5.61677
G1 X75.270 Y49.905 E5.64925
G1 X75.702 Y49.379 E5.69841
G1 X73.871 Y49.379 E5.83052
G1 X73.871 Y45.121 E6.13771
G1 X82.129 Y45.121 E6.73353
G1 X82.129 Y49.379 E7.04071
G1 X80.298 Y49.379 E7.17282
G1 X80.730 Y49.905 E7.22199
G1 X80.980 Y50.279 E7.25447
G1 X81.179 Y50.683 E7.28695
G1 X81.419 Y51.321 E7.33611
G1 X82.335 Y49.735 E7.46822
G1 X86.021 Y51.864 E7.77541
G1 X81.893 Y59.015 E8.37123
G1 X78.206 Y56.886 E8.67842
G1 X79.121 Y55.301 E8.81053
G1 X78.449 Y55.412 E8.85970
G1 X78.000 Y55.441 E8.89218
G1 X77.551 Y55.412 E8.92466
G1 X76.879 Y55.301 E8.97382
G1 X77.794 Y56.886 E9.10594
G1 X74.182 Y58.971 E9.40686
G1 X74.319 Y58.224 F5400.000
G1 X70.769 Y52.076 E9.91919 F504.000
G1 X73.454 Y50.526 E10.14288
G1 X74.975 Y53.160 E10.36240
G1 X75.232 Y53.078 E10.38187
G1 X75.144 Y52.187 E10.44644
G1 X75.162 Y51.626 E10.48693
G1 X75.290 Y51.080 E10.52741
G1 X75.521 Y50.569 E10.56790
G1 X75.848 Y50.113 E10.60839
G1 X76.258 Y49.729 E10.64887
G1 X76.734 Y49.433 E10.68936
G1 X77.549 Y49.064 E10.75393
G1 X77.492 Y48.800 E10.77340
G1 X74.450 Y48.800 E10.99293
G1 X74.450 Y45.700 E11.21662
G1 X81.550 Y45.700 E11.72895
G1 X81.550 Y48.800 E11.95264
G1 X78.508 Y48.800 E12.17216
G1 X78.451 Y49.064 E12.19164
G1 X79.266 Y49.433 E12.25621
G1 X79.742 Y49.729 E12.29670
G1 X80.152 Y50.113 E12.33718
G1 X80.479 Y50.569 E12.37767
G1 X80.710 Y51.080 E12.41816
G1 X80.838 Y51.626 E12.45864
G1 X80.856 Y52.187 E12.49914
G1 X80.768 Y53.078 E12.56370
G1 X81.025 Y53.160 E12.58317
G1 X82.546 Y50.526 E12.80269
G1 X85.231 Y52.076 E13.02638
G1 X81.681 Y58.224 E13.53871
G1 X78.996 Y56.674 E13.76240
G1 X80.517 Y54.040 E13.98192
G1 X80.317 Y53.859 E14.00139
G1 X79.590 Y54.380 E14.06596
G1 X79.095 Y54.644 E14.10645
G1 X78.558 Y54.807 E14.14693
G1 X78.000 Y54.862 E14.18742
G1 X77.442 Y54.807 E14.22791
G1 X76.905 Y54.644 E14.26840
G1 X76.410 Y54.380 E14.30888
G1 X75.682 Y53.859 E14.37345
G1 X75.483 Y54.040 E14.39292
G1 X77.004 Y56.674 E14.61244
G1 X74.394 Y58.181 E14.82987
G1 X73.818 Y58.514 F5400.000
G1 X74.179 Y59.642 F5400.000
G1 X78.000 Y57.435 E15.14828 F630.000
G1 X81.821 Y59.642 E15.46668
G1 X81.269 Y59.892 E15.51045
G1 X80.746 Y60.089 E15.55079
G1 X80.211 Y60.251 E15.59112
G1 X79.666 Y60.378 E15.63146
G1 X79.115 Y60.469 E15.67179
G1 X78.559 Y60.524 E15.71213
G1 X78.000 Y60.542 E15.75246
G1 X77.441 Y60.524 E15.79280
G1 X76.885 Y60.469 E15.83313
G1 X76.334 Y60.378 E15.87347
G1 X75.789 Y60.251 E15.91381
G1 X75.254 Y60.089 E15.95414
G1 X74.731 Y59.892 E15.99448
G1 X74.258 Y59.677 E16.03198
G1 X73.321 Y58.810 F5400.000
G1 X73.085 Y59.011 E16.05435 F630.000
G1 X72.368 Y58.422 E16.12130
G1 X71.960 Y58.040 E16.16163
G1 X71.578 Y57.632 E16.20197
G1 X71.223 Y57.200 E16.24230
G1 X70.897 Y56.746 E16.28264
G1 X70.602 Y56.271 E16.32297
G1 X70.339 Y55.778 E16.36331
G1 X70.108 Y55.269 E16.40364
G1 X69.911 Y54.746 E16.44398
G1 X69.749 Y54.211 E16.48431
G1 X69.622 Y53.666 E16.52465
G1 X69.471 Y52.751 E16.59160
G1 X69.763 Y52.647 E16.61397
G1 X73.278 Y58.735 E17.12128
G1 X69.471 Y51.489 F5400.000
G1 X69.531 Y50.885 E17.16505 F630.000
G1 X69.622 Y50.334 E17.20538
G1 X69.749 Y49.789 E17.24572
G1 X69.911 Y49.254 E17.28605
G1 X70.108 Y48.731 E17.32639
G1 X70.339 Y48.222 E17.36672
G1 X70.602 Y47.729 E17.40706
G1 X70.897 Y47.254 E17.44739
G1 X71.223 Y46.800 E17.48773
G1 X71.578 Y46.368 E17.52806
G1 X71.960 Y45.960 E17.56840
G1 X72.368 Y45.578 E17.60874
G1 X72.800 Y45.223 E17.64907
G1 X73.293 Y44.870 E17.69284
G1 X73.293 Y49.282 E18.01125
G1 X69.547 Y51.445 E18.32339
G1 X74.441 Y44.543 F5400.000
G1 X74.386 Y44.238 E18.34576 F630.000
G1 X75.254 Y43.911 E18.41270
G1 X75.789 Y43.749 E18.45304
G1 X76.334 Y43.622 E18.49338
G1 X76.885 Y43.531 E18.53371
G1 X77.441 Y43.476 E18.57405
G1 X78.000 Y43.458 E18.61438
G1 X78.559 Y43.476 E18.65472
G1 X79.115 Y43.531 E18.69505
G1 X79.666 Y43.622 E18.73539
G1 X80.211 Y43.749 E18.77572
G1 X80.746 Y43.911 E18.81606
G1 X81.614 Y44.238 E18.88301
G1 X81.559 Y44.543 E18.90537
G1 X74.528 Y44.543 E19.41268
G1 X82.707 Y44.870 F5400.000
G1 X83.200 Y45.223 E19.45645 F630.000
G1 X83.632 Y45.578 E19.49679
G1 X84.040 Y45.960 E19.53712
G1 X84.422 Y46.368 E19.57746
G1 X84.777 Y46.800 E19.61779
G1 X85.103 Y47.254 E19.65813
G1 X85.398 Y47.729 E19.69846
G1 X85.661 Y48.222 E19.73880
G1 X85.892 Y48.731 E19.77914
G1 X86.089 Y49.254 E19.81947
G1 X86.251 Y49.789 E19.85980
G1 X86.378 Y50.334 E19.90014
G1 X86.469 Y50.885 E19.94048
G1 X86.529 Y51.489 E19.98424
G1 X82.707 Y49.282 E20.30265
G1 X82.707 Y44.957 E20.61479
G1 X86.237 Y52.647 F5400.000
G1 X86.529 Y52.751 E20.63716 F630.000
G1 X86.378 Y53.666 E20.70411
G1 X86.251 Y54.211 E20.74444
G1 X86.089 Y54.746 E20.78477
G1 X85.892 Y55.269 E20.82511
G1 X85.661 Y55.778 E20.86545
G1 X85.398 Y56.271 E20.90578
G1 X85.103 Y56.746 E20.94612
G1 X84.777 Y57.200 E20.98645
G1 X84.422 Y57.632 E21.02679
G1 X84.040 Y58.040 E21.06712
G1 X83.632 Y58.422 E21.10746
G1 X82.915 Y59.011 E21.17441
G1 X82.679 Y58.810 E21.19677
G1 X86.194 Y52.722 E21.70408
G1 X87.101 Y52.597 F5400.000
G1 X87.043 Y53.191 E21.74715 F630.000
G1 X86.946 Y53.779 E21.79021
G1 X86.810 Y54.361 E21.83328
G1 X86.637 Y54.932 E21.87635
G1 X86.427 Y55.490 E21.91942
G1 X86.180 Y56.034 E21.96249
G1 X85.899 Y56.560 E22.00556
G1 X85.584 Y57.067 E22.04863
G1 X85.236 Y57.553 E22.09170
G1 X84.858 Y58.014 E22.13476
G1 X84.450 Y58.450 E22.17783
G1 X84.014 Y58.858 E22.22090
G1 X83.552 Y59.236 E22.26397
G1 X83.067 Y59.584 E22.30704
G1 X82.560 Y59.899 E22.35011
G1 X82.034 Y60.180 E22.39317
G1 X81.490 Y60.427 E22.43624
G1 X80.932 Y60.637 E22.47931
