; generated by Slic3r 1.0.0RC2 on 2014-11-14 at 15:18:09

; layer_height = 0.30
; perimeters = 3
; top_solid_layers = 3
; bottom_solid_layers = 3
; fill_density = 0.3
; perimeter_speed = 30
; infill_speed = 50
; travel_speed = 90
; nozzle_diameter = 0.5
; filament_diameter = 1.75
; extrusion_multiplier = 1
; perimeters extrusion width = 0.50mm
; infill extrusion width = 0.70mm
; solid infill extrusion width = 0.70mm
; top infill extrusion width = 0.70mm
; first layer extrusion width = 0.60mm

G21 ; set units to millimeters
M109 S200;set extruder temp and start heating
G28 X0 Y0 Z0;home X and Y and Z
G29 ;probe bed
G90; set absolute coordinates
G92 E0; reset extruder distance
G1 Z3 F3000; get out of the bed after probe
G1 X10 Y10 F3000 ; move to back right corner
G90 ; use absolute coordinates
G92 E0
M82 ; use absolute distances for extrusion
M106 S204
G1 F1800.000 E-4.50000
G92 E0
G1 Z0.300 F5400.000
G1 X48.690 Y48.690 F5400.000
G1 E4.50000 F1800.000
G1 X48.880 Y48.510 E4.51889 F630.000
G1 X50.700 Y47.020 E4.68861
G1 X50.900 Y46.880 E4.70623
G1 X51.110 Y46.750 E4.72405
G1 X53.410 Y45.530 E4.91192
G1 X53.650 Y45.440 E4.93041
G1 X55.900 Y44.760 E5.10002
G1 X56.150 Y44.700 E5.11858
G1 X56.400 Y44.660 E5.13684
G1 X58.750 Y44.430 E5.30723
G1 X59.000 Y44.420 E5.32528
G1 X119.000 Y44.420 E9.65480
G1 X119.250 Y44.430 E9.67286
G1 X121.590 Y44.660 E9.84252
G1 X122.090 Y44.760 E9.87931
G1 X124.340 Y45.440 E10.04892
G1 X124.580 Y45.530 E10.06742
G1 X126.880 Y46.750 E10.25529
G1 X127.290 Y47.020 E10.29071
G1 X129.110 Y48.510 E10.46044
G1 X129.300 Y48.690 E10.47932
G1 X129.480 Y48.880 E10.49821
G1 X130.970 Y50.700 E10.66794
G1 X131.240 Y51.110 E10.70336
G1 X132.350 Y53.180 E10.87285
G1 X132.550 Y53.650 E10.90971
G1 X133.230 Y55.900 E11.07932
G1 X133.290 Y56.150 E11.09787
G1 X133.330 Y56.400 E11.11614
G1 X133.560 Y58.750 E11.28652
G1 X133.570 Y89.260 E13.48808
G1 X133.330 Y91.600 E13.65782
G1 X133.290 Y91.850 E13.67609
G1 X132.550 Y94.340 E13.86353
G1 X132.350 Y94.810 E13.90039
G1 X131.240 Y96.880 E14.06987
G1 X130.970 Y97.290 E14.10530
G1 X129.480 Y99.110 E14.27503
G1 X129.300 Y99.300 E14.29391
G1 X99.300 Y129.300 E17.35534
G1 X99.110 Y129.480 E17.37423
G1 X97.290 Y130.970 E17.54396
G1 X97.090 Y131.110 E17.56157
G1 X96.880 Y131.240 E17.57939
G1 X94.580 Y132.460 E17.76726
G1 X94.340 Y132.550 E17.78576
G1 X91.850 Y133.290 E17.97320
G1 X91.600 Y133.330 E17.99147
G1 X89.260 Y133.570 E18.16121
G1 X89.000 Y133.580 E18.17998
G1 X58.990 Y133.580 E20.34546
G1 X58.730 Y133.570 E20.36424
G1 X56.390 Y133.330 E20.53397
G1 X55.900 Y133.230 E20.57006
G1 X53.650 Y132.550 E20.73967
G1 X53.410 Y132.460 E20.75817
G1 X51.110 Y131.240 E20.94603
G1 X50.700 Y130.970 E20.98146
G1 X48.880 Y129.480 E21.15118
G1 X48.690 Y129.300 E21.17007
G1 X48.510 Y129.110 E21.18896
G1 X47.020 Y127.290 E21.35868
G1 X46.750 Y126.880 E21.39411
G1 X45.530 Y124.580 E21.58197
G1 X45.440 Y124.340 E21.60047
G1 X44.760 Y122.090 E21.77008
G1 X44.660 Y121.590 E21.80687
G1 X44.430 Y119.250 E21.97654
G1 X44.420 Y119.000 E21.99459
G1 X44.430 Y58.740 E26.34287
G1 X44.660 Y56.400 E26.51254
G1 X44.700 Y56.150 E26.53081
G1 X44.760 Y55.900 E26.54936
G1 X45.440 Y53.650 E26.71897
G1 X45.530 Y53.410 E26.73747
G1 X46.750 Y51.110 E26.92533
G1 X46.880 Y50.900 E26.94315
G1 X47.020 Y50.700 E26.96077
G1 X48.630 Y48.753 E27.14309
G1 X48.880 Y48.510 F4320.000 E27.00518
G1 X50.700 Y47.020 F4320.000 E26.07413
G1 X50.900 Y46.880 F4320.000 E25.97749
G1 X51.110 Y46.750 F4320.000 E25.87973
G1 X53.410 Y45.530 F4320.000 E24.84916
G1 X53.650 Y45.440 F4320.000 E24.74770
G1 X55.900 Y44.760 F4320.000 E23.81729
G1 X56.150 Y44.700 F4320.000 E23.71552
G1 X56.400 Y44.660 F4320.000 E23.61531
G1 X58.279 Y44.476 F4320.000 E22.86809
G1 F1800.000 E22.64309
G92 E0
G1 X58.402 Y115.995 F5400.000
G1 E4.50000 F1800.000
G1 X59.000 Y115.936 E4.54335 F630.000
G1 X59.598 Y115.995 E4.58668
G1 X60.173 Y116.169 E4.63003
G1 X60.702 Y116.452 E4.67337
G1 X61.167 Y116.833 E4.71672
G1 X61.548 Y117.298 E4.76006
G1 X61.831 Y117.827 E4.80340
G1 X62.005 Y118.402 E4.84675
G1 X62.064 Y119.000 E4.89009
G1 X62.005 Y119.598 E4.93344
G1 X61.831 Y120.173 E4.97678
G1 X61.548 Y120.702 E5.02012
G1 X61.167 Y121.167 E5.06347
G1 X60.702 Y121.548 E5.10681
G1 X60.173 Y121.831 E5.15015
G1 X59.598 Y122.005 E5.19350
G1 X59.000 Y122.064 E5.23684
G1 X58.402 Y122.005 E5.28019
G1 X57.827 Y121.831 E5.32353
G1 X57.298 Y121.548 E5.36688
G1 X56.833 Y121.167 E5.41022
G1 X56.452 Y120.702 E5.45357
G1 X56.169 Y120.173 E5.49691
G1 X55.995 Y119.598 E5.54026
G1 X55.936 Y119.000 E5.58360
G1 X55.995 Y118.402 E5.62694
G1 X56.169 Y117.827 E5.67028
G1 X56.452 Y117.298 E5.71363
G1 X56.833 Y116.833 E5.75698
G1 X57.298 Y116.452 E5.80032
G1 X57.827 Y116.169 E5.84366
G1 X58.319 Y116.020 E5.88074
G1 X58.516 Y116.565 F5400.000
G1 X59.000 Y116.517 E5.91586 F630.000
G1 X59.484 Y116.565 E5.95098
G1 X59.950 Y116.706 E5.98611
G1 X60.379 Y116.936 E6.02122
G1 X60.756 Y117.244 E6.05634
G1 X61.064 Y117.621 E6.09147
G1 X61.294 Y118.050 E6.12658
G1 X61.435 Y118.516 E6.16171
G1 X61.483 Y119.000 E6.19682
G1 X61.435 Y119.484 E6.23195
G1 X61.294 Y119.950 E6.26707
G1 X61.064 Y120.379 E6.30219
G1 X60.756 Y120.756 E6.33731
G1 X60.379 Y121.064 E6.37243
G1 X59.950 Y121.294 E6.40755
G1 X59.484 Y121.435 E6.44267
G1 X59.000 Y121.483 E6.47779
G1 X58.516 Y121.435 E6.51291
G1 X58.050 Y121.294 E6.54803
G1 X57.621 Y121.064 E6.58315
G1 X57.244 Y120.756 E6.61827
G1 X56.936 Y120.379 E6.65340
G1 X56.706 Y119.950 E6.68852
G1 X56.565 Y119.484 E6.72364
G1 X56.517 Y119.000 E6.75876
G1 X56.565 Y118.516 E6.79388
G1 X56.706 Y118.050 E6.82900
G1 X56.936 Y117.621 E6.86412
G1 X57.244 Y117.244 E6.89924
G1 X57.621 Y116.936 E6.93436
G1 X58.050 Y116.706 E6.96948
G1 X58.433 Y116.590 E6.99834
G1 X58.590 Y117.147 F5400.000
G1 X59.000 Y117.099 E7.02816 F630.000
G1 X59.371 Y117.135 E7.05506
G1 X59.728 Y117.243 E7.08196
G1 X60.056 Y117.419 E7.10886
G1 X60.345 Y117.655 E7.13575
G1 X60.581 Y117.944 E7.16265
G1 X60.757 Y118.272 E7.18955
G1 X60.865 Y118.629 E7.21644
G1 X60.901 Y119.000 E7.24334
G1 X60.865 Y119.371 E7.27024
G1 X60.757 Y119.728 E7.29714
G1 X60.581 Y120.056 E7.32403
G1 X60.345 Y120.345 E7.35093
G1 X60.056 Y120.581 E7.37783
G1 X59.728 Y120.757 E7.40472
G1 X59.371 Y120.865 E7.43162
G1 X59.000 Y120.901 E7.45852
G1 X58.629 Y120.865 E7.48542
G1 X58.272 Y120.757 E7.51231
G1 X57.944 Y120.581 E7.53921
G1 X57.655 Y120.345 E7.56611
G1 X57.419 Y120.056 E7.59301
G1 X57.243 Y119.728 E7.61990
G1 X57.135 Y119.371 E7.64680
G1 X57.099 Y119.000 E7.67370
G1 X57.135 Y118.629 E7.70059
G1 X57.243 Y118.272 E7.72749
G1 X57.419 Y117.944 E7.75439
G1 X57.655 Y117.655 E7.78129
G1 X57.944 Y117.419 E7.80818
G1 X58.272 Y117.243 E7.83508
G1 X58.506 Y117.172 E7.85273
G1 X58.730 Y116.758 F5400.000
G1 X56.945 Y108.667 F5400.000
G1 X59.000 Y108.464 E8.00177 F630.000
G1 X61.055 Y108.667 E8.15081
G1 X63.032 Y109.266 E8.29984
G1 X64.853 Y110.240 E8.44888
G1 X66.450 Y111.550 E8.59791
G1 X67.760 Y113.147 E8.74695
G1 X68.734 Y114.968 E8.89599
G1 X69.333 Y116.945 E9.04502
G1 X69.536 Y119.000 E9.19406
G1 X69.333 Y121.055 E9.34309
G1 X68.734 Y123.032 E9.49213
G1 X67.760 Y124.853 E9.64116
G1 X66.450 Y126.450 E9.79020
G1 X64.853 Y127.760 E9.93924
G1 X63.032 Y128.734 E10.08827
G1 X61.055 Y129.333 E10.23731
G1 X59.000 Y129.536 E10.38634
G1 X56.945 Y129.333 E10.53538
G1 X54.968 Y128.734 E10.68442
G1 X53.147 Y127.760 E10.83345
G1 X51.550 Y126.450 E10.98249
G1 X50.240 Y124.853 E11.13152
G1 X49.266 Y123.032 E11.28056
G1 X48.667 Y121.055 E11.42960
G1 X48.464 Y119.000 E11.57863
G1 X48.667 Y116.945 E11.72767
G1 X49.266 Y114.968 E11.87670
G1 X50.240 Y113.147 E12.02574
G1 X51.550 Y111.550 E12.17477
G1 X53.147 Y110.240 E12.32381
G1 X54.968 Y109.266 E12.47285
G1 X56.862 Y108.692 E12.61562
G1 X56.831 Y108.096 F5400.000
G1 X59.000 Y107.883 E12.77288 F630.000
G1 X61.169 Y108.096 E12.93014
G1 X63.254 Y108.729 E13.08740
G1 X65.176 Y109.756 E13.24466
G1 X66.861 Y111.139 E13.40192
G1 X68.244 Y112.824 E13.55918
G1 X69.271 Y114.746 E13.71644
G1 X69.904 Y116.831 E13.87369
G1 X70.117 Y119.000 E14.03095
G1 X69.904 Y121.169 E14.18821
G1 X69.271 Y123.254 E14.34547
G1 X68.244 Y125.176 E14.50273
G1 X66.861 Y126.861 E14.65999
G1 X65.176 Y128.244 E14.81725
G1 X63.254 Y129.271 E14.97451
G1 X61.169 Y129.904 E15.13177
G1 X59.000 Y130.117 E15.28903
G1 X56.831 Y129.904 E15.44629
G1 X54.746 Y129.271 E15.60355
G1 X52.824 Y128.244 E15.76081
G1 X51.139 Y126.861 E15.91807
G1 X49.756 Y125.176 E16.07532
G1 X48.729 Y123.254 E16.23258
G1 X48.096 Y121.169 E16.38984
G1 X47.883 Y119.000 E16.54710
G1 X48.096 Y116.831 E16.70436
G1 X48.729 Y114.746 E16.86162
G1 X49.756 Y112.824 E17.01888
G1 X51.139 Y111.139 E17.17614
G1 X52.824 Y109.756 E17.33340
G1 X54.746 Y108.729 E17.49066
G1 X56.748 Y108.122 E17.64166
G1 X56.718 Y107.526 F5400.000
G1 X59.000 Y107.301 E17.80714 F504.000
G1 X61.282 Y107.526 E17.97262
G1 X63.477 Y108.192 E18.13810
G1 X65.499 Y109.273 E18.30359
G1 X67.272 Y110.728 E18.46907
G1 X68.727 Y112.501 E18.63455
G1 X69.808 Y114.523 E18.80003
G1 X70.474 Y116.718 E18.96552
G1 X70.699 Y119.000 E19.13100
G1 X70.474 Y121.282 E19.29648
G1 X69.808 Y123.477 E19.46196
G1 X68.727 Y125.499 E19.62745
G1 X67.272 Y127.272 E19.79293
G1 X65.499 Y128.727 E19.95841
G1 X63.477 Y129.808 E20.12389
G1 X61.282 Y130.474 E20.28938
G1 X59.000 Y130.699 E20.45486
G1 X56.718 Y130.474 E20.62034
G1 X54.523 Y129.808 E20.78583
G1 X52.501 Y128.727 E20.95131
G1 X50.728 Y127.272 E21.11679
G1 X49.273 Y125.499 E21.28227
G1 X48.192 Y123.477 E21.44776
G1 X47.526 Y121.282 E21.61324
G1 X47.301 Y119.000 E21.77872
G1 X47.526 Y116.718 E21.94420
G1 X48.192 Y114.523 E22.10969
G1 X49.273 Y112.501 E22.27517
G1 X50.728 Y110.728 E22.44065
G1 X52.501 Y109.273 E22.60613
G1 X54.523 Y108.192 E22.77162
G1 X56.635 Y107.551 E22.93084
G1 X57.085 Y107.973 F5400.000
G1 X59.000 Y107.301 F4320.000 E22.12741
G1 X61.282 Y107.526 F4320.000 E21.21963
G1 X63.477 Y108.192 F4320.000 E20.31186
G1 X65.499 Y109.273 F4320.000 E19.40409
G1 X66.961 Y110.472 F4320.000 E18.65584
G1 F1800.000 E18.43084
G92 E0
G1 X86.169 Y117.827 F5400.000
G1 E4.50000 F1800.000
G1 X86.452 Y117.298 E4.54335 F630.000
G1 X86.833 Y116.833 E4.58669
G1 X87.298 Y116.452 E4.63004
G1 X87.827 Y116.169 E4.67338
G1 X88.402 Y115.995 E4.71673
G1 X89.000 Y115.936 E4.76007
G1 X89.598 Y115.995 E4.80341
G1 X90.173 Y116.169 E4.84676
G1 X90.702 Y116.452 E4.89009
G1 X91.167 Y116.833 E4.93344
G1 X91.548 Y117.298 E4.97679
G1 X91.831 Y117.827 E5.02012
G1 X92.005 Y118.402 E5.06347
G1 X92.064 Y119.000 E5.10681
G1 X92.005 Y119.598 E5.15016
G1 X91.831 Y120.173 E5.19350
G1 X91.548 Y120.702 E5.23684
G1 X91.167 Y121.167 E5.28019
G1 X90.702 Y121.548 E5.32353
G1 X90.173 Y121.831 E5.36687
G1 X89.598 Y122.005 E5.41022
G1 X89.000 Y122.064 E5.45357
G1 X88.402 Y122.005 E5.49691
G1 X87.827 Y121.831 E5.54026
G1 X87.298 Y121.548 E5.58360
G1 X86.833 Y121.167 E5.62694
G1 X86.452 Y120.702 E5.67029
G1 X86.169 Y120.173 E5.71364
G1 X85.995 Y119.598 E5.75698
G1 X85.936 Y119.000 E5.80032
G1 X85.995 Y118.402 E5.84366
G1 X86.144 Y117.910 E5.88074
G1 X86.706 Y118.050 F5400.000
G1 X86.936 Y117.621 E5.91587 F630.000
G1 X87.244 Y117.244 E5.95099
G1 X87.621 Y116.936 E5.98611
G1 X88.050 Y116.706 E6.02123
G1 X88.516 Y116.565 E6.05635
G1 X89.000 Y116.517 E6.09147
G1 X89.484 Y116.565 E6.12659
G1 X89.950 Y116.706 E6.16171
G1 X90.379 Y116.936 E6.19683
G1 X90.756 Y117.244 E6.23195
G1 X91.064 Y117.621 E6.26707
G1 X91.294 Y118.050 E6.30219
G1 X91.435 Y118.516 E6.33731
G1 X91.483 Y119.000 E6.37243
G1 X91.435 Y119.484 E6.40755
G1 X91.294 Y119.950 E6.44267
G1 X91.064 Y120.379 E6.47779
G1 X90.756 Y120.756 E6.51291
G1 X90.379 Y121.064 E6.54803
G1 X89.950 Y121.294 E6.58315
G1 X89.484 Y121.435 E6.61827
G1 X89.000 Y121.483 E6.65340
G1 X88.516 Y121.435 E6.68852
G1 X88.050 Y121.294 E6.72364
G1 X87.621 Y121.064 E6.75876
G1 X87.244 Y120.756 E6.79388
G1 X86.936 Y120.379 E6.82900
G1 X86.706 Y119.950 E6.86412
G1 X86.565 Y119.484 E6.89925
G1 X86.517 Y119.000 E6.93436
G1 X86.565 Y118.516 E6.96948
G1 X86.681 Y118.133 E6.99834
G1 X87.231 Y118.312 F5400.000
G1 X87.419 Y117.944 E7.02817 F630.000
G1 X87.655 Y117.655 E7.05506
G1 X87.944 Y117.419 E7.08196
G1 X88.272 Y117.243 E7.10886
G1 X88.629 Y117.135 E7.13576
G1 X89.000 Y117.099 E7.16265
G1 X89.371 Y117.135 E7.18955
G1 X89.728 Y117.243 E7.21645
G1 X90.056 Y117.419 E7.24334
G1 X90.345 Y117.655 E7.27024
G1 X90.581 Y117.944 E7.29714
G1 X90.757 Y118.272 E7.32403
G1 X90.865 Y118.629 E7.35093
G1 X90.901 Y119.000 E7.37783
G1 X90.865 Y119.371 E7.40473
G1 X90.757 Y119.728 E7.43162
G1 X90.581 Y120.056 E7.45852
G1 X90.345 Y120.345 E7.48542
G1 X90.056 Y120.581 E7.51232
G1 X89.728 Y120.757 E7.53921
G1 X89.371 Y120.865 E7.56611
G1 X89.000 Y120.901 E7.59301
G1 X88.629 Y120.865 E7.61990
G1 X88.272 Y120.757 E7.64680
G1 X87.944 Y120.581 E7.67370
G1 X87.655 Y120.345 E7.70060
G1 X87.419 Y120.056 E7.72749
G1 X87.243 Y119.728 E7.75439
G1 X87.135 Y119.371 E7.78129
G1 X87.099 Y119.000 E7.80819
G1 X87.135 Y118.629 E7.83508
G1 X87.206 Y118.395 E7.85273
G1 X86.986 Y117.979 F5400.000
G1 X79.266 Y114.968 F5400.000
G1 X80.240 Y113.147 E8.00177 F630.000
G1 X81.550 Y111.550 E8.15081
G1 X83.147 Y110.240 E8.29984
G1 X84.968 Y109.266 E8.44888
G1 X86.945 Y108.667 E8.59791
G1 X89.000 Y108.464 E8.74695
G1 X91.055 Y108.667 E8.89599
G1 X93.032 Y109.266 E9.04502
G1 X94.853 Y110.240 E9.19406
G1 X96.450 Y111.550 E9.34309
G1 X97.760 Y113.147 E9.49213
G1 X98.734 Y114.968 E9.64117
G1 X99.333 Y116.945 E9.79020
G1 X99.536 Y119.000 E9.93924
G1 X99.333 Y121.055 E10.08827
G1 X98.734 Y123.032 E10.23731
G1 X97.760 Y124.853 E10.38634
G1 X96.450 Y126.450 E10.53539
G1 X94.853 Y127.760 E10.68442
G1 X93.032 Y128.734 E10.83345
G1 X91.055 Y129.333 E10.98249
G1 X89.000 Y129.536 E11.13152
G1 X86.945 Y129.333 E11.28056
G1 X84.968 Y128.734 E11.42960
G1 X83.147 Y127.760 E11.57863
G1 X81.550 Y126.450 E11.72767
G1 X80.240 Y124.853 E11.87670
G1 X79.266 Y123.032 E12.02574
G1 X78.667 Y121.055 E12.17478
G1 X78.464 Y119.000 E12.32381
G1 X78.667 Y116.945 E12.47285
G1 X79.241 Y115.051 E12.61562
G1 X78.729 Y114.746 F5400.000
G1 X79.756 Y112.824 E12.77288 F630.000
G1 X81.139 Y111.139 E12.93014
G1 X82.824 Y109.756 E13.08740
G1 X84.746 Y108.729 E13.24466
G1 X86.831 Y108.096 E13.40192
G1 X89.000 Y107.883 E13.55918
G1 X91.169 Y108.096 E13.71644
G1 X93.254 Y108.729 E13.87370
G1 X95.176 Y109.756 E14.03095
G1 X96.861 Y111.139 E14.18821
G1 X98.244 Y112.824 E14.34547
G1 X99.271 Y114.746 E14.50273
G1 X99.904 Y116.831 E14.65999
G1 X100.117 Y119.000 E14.81725
G1 X99.904 Y121.169 E14.97451
G1 X99.271 Y123.254 E15.13177
G1 X98.244 Y125.176 E15.28903
G1 X96.861 Y126.861 E15.44629
G1 X95.176 Y128.244 E15.60355
G1 X93.254 Y129.271 E15.76081
G1 X91.169 Y129.904 E15.91807
G1 X89.000 Y130.117 E16.07533
G1 X86.831 Y129.904 E16.23258
G1 X84.746 Y129.271 E16.38984
G1 X82.824 Y128.244 E16.54710
G1 X81.139 Y126.861 E16.70436
G1 X79.756 Y125.176 E16.86162
G1 X78.729 Y123.254 E17.01888
G1 X78.096 Y121.169 E17.17614
G1 X77.883 Y119.000 E17.33340
G1 X78.096 Y116.831 E17.49066
G1 X78.704 Y114.829 E17.64166
G1 X78.086 Y114.871 F5400.000
G1 X78.006 Y114.871 E17.64746 F504.000
G1 X79.273 Y112.501 E17.84141
G1 X80.728 Y110.728 E18.00690
G1 X82.501 Y109.273 E18.17238
G1 X84.523 Y108.192 E18.33786
G1 X86.718 Y107.526 E18.50334
G1 X89.000 Y107.301 E18.66883
G1 X91.282 Y107.526 E18.83431
G1 X93.477 Y108.192 E18.99979
G1 X95.499 Y109.273 E19.16527
G1 X97.272 Y110.728 E19.33076
G1 X98.727 Y112.501 E19.49624
G1 X99.808 Y114.523 E19.66172
G1 X100.474 Y116.718 E19.82720
G1 X100.699 Y119.000 E19.99269
G1 X100.474 Y121.282 E20.15817
G1 X99.808 Y123.477 E20.32365
G1 X98.727 Y125.499 E20.48914
G1 X97.272 Y127.272 E20.65462
G1 X95.499 Y128.727 E20.82010
G1 X93.477 Y129.808 E20.98558
G1 X91.282 Y130.474 E21.15107
G1 X89.000 Y130.699 E21.31655
G1 X86.718 Y130.474 E21.48203
G1 X84.523 Y129.808 E21.64751
G1 X82.501 Y128.727 E21.81300
G1 X80.728 Y127.272 E21.97848
G1 X79.273 Y125.499 E22.14396
G1 X78.192 Y123.477 E22.30945
G1 X77.526 Y121.282 E22.47493
G1 X77.301 Y119.000 E22.64041
G1 X77.526 Y116.718 E22.80589
G1 X78.061 Y114.954 E22.93887
G1 X78.094 Y114.791 F5400.000
G1 X78.006 Y114.871 F4320.000 E22.89169
