; generated by Slic3r 1.0.0RC2 on 2014-11-17 at 16:43:17

; layer_height = 0.30
; perimeters = 3
; top_solid_layers = 3
; bottom_solid_layers = 3
; fill_density = 0.3
; perimeter_speed = 30
; infill_speed = 50
; travel_speed = 90
; nozzle_diameter = 0.5
; filament_diameter = 1.75
; extrusion_multiplier = 1
; perimeters extrusion width = 0.50mm
; infill extrusion width = 0.70mm
; solid infill extrusion width = 0.70mm
; top infill extrusion width = 0.70mm
; first layer extrusion width = 0.60mm

G21 ; set units to millimeters
M109 S200;set extruder temp and start heating
G28 X0 Y0 Z0;home X and Y and Z
G29 ;probe bed
G90; set absolute coordinates
G92 E0; reset extruder distance
G1 Z3 F3000; get out of the bed after probe
G1 X10 Y10 F3000 ; move to back right corner
G90 ; use absolute coordinates
G92 E0
M82 ; use absolute distances for extrusion
M106 S204
G1 F1800.000 E-4.50000
G92 E0
G1 Z0.300 F5400.000
G1 X23.382 Y11.719 F5400.000
G1 E4.50000 F1800.000
G1 X23.952 Y11.149 E4.55817 F630.000
G1 X24.672 Y10.779 E4.61658
G1 X25.462 Y10.649 E4.67435
G1 X30.852 Y10.629 E5.06329
G1 X31.332 Y10.649 E5.09796
G1 X114.122 Y20.839 E11.11705
G1 X114.802 Y21.019 E11.16781
G1 X115.412 Y21.379 E11.21892
G1 X119.612 Y24.699 E11.60524
G1 X120.152 Y25.279 E11.66242
G1 X120.482 Y25.989 E11.71892
G1 X120.992 Y27.729 E11.84976
G1 X121.072 Y28.099 E11.87707
G1 X121.102 Y28.459 E11.90314
G1 X121.032 Y69.309 E14.85083
G1 X121.002 Y69.679 E14.87761
G1 X120.922 Y70.039 E14.90422
G1 X120.412 Y71.769 E15.03437
G1 X120.012 Y72.579 E15.09956
G1 X119.352 Y73.199 E15.16490
G1 X117.392 Y74.469 E15.33342
G1 X115.672 Y75.419 E15.47521
G1 X113.592 Y76.359 E15.63992
G1 X113.212 Y76.499 E15.66914
G1 X112.822 Y76.569 E15.69773
G1 X99.522 Y78.049 E16.66336
G1 X30.922 Y83.359 E21.62826
G1 X25.472 Y83.369 E22.02152
G1 X24.672 Y83.239 E22.08000
G1 X23.952 Y82.879 E22.13809
G1 X23.382 Y82.309 E22.19626
G1 X23.022 Y81.589 E22.25435
G1 X22.892 Y80.789 E22.31283
G1 X22.892 Y13.229 E27.18787
G1 X23.022 Y12.439 E27.24564
G1 X23.343 Y11.796 E27.29747
G1 X23.952 Y11.149 F4320.000 E26.94563
G1 X24.672 Y10.779 F4320.000 E26.62520
G1 X25.462 Y10.649 F4320.000 E26.30828
G1 X30.852 Y10.629 F4320.000 E24.17473
G1 X31.332 Y10.649 F4320.000 E23.98456
G1 X33.745 Y10.946 F4320.000 E23.02247
G1 F1800.000 E22.79747
G92 E0
G1 X31.298 Y31.917 F5400.000
G1 E4.50000 F1800.000
G1 X31.859 Y31.813 E4.54113 F630.000
G1 X32.276 Y31.844 E4.57133
G1 X32.750 Y32.015 E4.60766
G1 X33.074 Y32.218 E4.63528
G1 X33.560 Y32.797 E4.68981
G1 X33.754 Y33.317 E4.72989
G1 X33.791 Y33.708 E4.75822
G1 X33.665 Y34.355 E4.80572
G1 X33.480 Y34.649 E4.83083
G1 X33.403 Y34.815 E4.84402
G1 X32.987 Y35.219 E4.88588
G1 X32.678 Y35.357 E4.91033
G1 X32.522 Y35.452 E4.92349
G1 X31.962 Y35.556 E4.96459
G1 X31.544 Y35.525 E4.99483
G1 X31.271 Y35.440 E5.01550
G1 X30.997 Y35.269 E5.03878
G1 X30.763 Y35.171 E5.05714
G1 X30.260 Y34.573 E5.11348
G1 X30.063 Y34.042 E5.15436
G1 X30.041 Y33.563 E5.18895
G1 X30.161 Y33.006 E5.23005
G1 X30.340 Y32.720 E5.25442
G1 X30.417 Y32.554 E5.26763
G1 X30.563 Y32.399 E5.28298
G1 X30.833 Y32.150 E5.30951
G1 X31.224 Y31.962 E5.34080
G1 X31.437 Y31.364 F5400.000
G1 X59.453 Y33.409 F5400.000
G1 X59.640 Y32.683 E5.39494 F630.000
G1 X60.002 Y32.025 E5.44909
G1 X60.515 Y31.478 E5.50325
G1 X61.149 Y31.076 E5.55740
G1 X61.862 Y30.844 E5.61154
G1 X62.611 Y30.797 E5.66569
G1 X62.797 Y30.832 E5.67932
G1 X62.975 Y30.839 E5.69220
G1 X63.661 Y31.023 E5.74339
G1 X64.112 Y31.306 E5.78181
G1 X64.702 Y31.793 E5.83702
G1 X65.093 Y32.275 E5.88185
G1 X65.346 Y32.894 E5.93007
G1 X65.481 Y33.417 E5.96905
G1 X65.526 Y33.898 E6.00396
G1 X65.429 Y34.577 E6.05342
G1 X65.273 Y34.985 E6.08494
G1 X65.041 Y35.488 E6.12490
G1 X64.760 Y35.784 E6.15437
G1 X64.559 Y36.060 E6.17900
G1 X64.163 Y36.341 E6.21404
G1 X63.693 Y36.630 E6.25388
G1 X63.294 Y36.721 E6.28341
G1 X62.971 Y36.840 E6.30820
G1 X62.488 Y36.853 E6.34312
G1 X61.983 Y36.834 E6.37958
G1 X61.177 Y36.586 E6.44042
G1 X60.645 Y36.228 E6.48668
G1 X60.222 Y35.877 E6.52633
G1 X59.678 Y35.032 E6.59881
G1 X59.481 Y34.369 E6.64879
G1 X59.453 Y34.159 E6.66401
G1 X59.453 Y33.496 E6.71187
G1 X60.032 Y33.482 F5400.000
G1 X60.182 Y32.897 E6.75547 F630.000
G1 X60.473 Y32.368 E6.79907
G1 X60.887 Y31.927 E6.84267
G1 X61.397 Y31.604 E6.88627
G1 X61.972 Y31.417 E6.92987
G1 X62.575 Y31.379 E6.97347
G1 X62.878 Y31.414 E6.99549
G1 X63.434 Y31.564 E7.03707
G1 X63.773 Y31.776 E7.06587
G1 X64.289 Y32.202 E7.11419
G1 X64.590 Y32.574 E7.14870
G1 X64.796 Y33.076 E7.18787
G1 X64.909 Y33.517 E7.22069
G1 X64.943 Y33.877 E7.24681
G1 X64.861 Y34.441 E7.28796
G1 X64.739 Y34.760 E7.31260
G1 X64.555 Y35.159 E7.34428
G1 X64.314 Y35.414 E7.36962
G1 X64.147 Y35.644 E7.39012
G1 X63.845 Y35.858 E7.41688
G1 X63.471 Y36.087 E7.44848
G1 X63.128 Y36.165 E7.47387
G1 X62.860 Y36.264 E7.49447
G1 X62.081 Y36.259 E7.55070
G1 X61.429 Y36.058 E7.59996
G1 X60.992 Y35.764 E7.63795
G1 X60.657 Y35.486 E7.66934
G1 X60.211 Y34.794 E7.72876
G1 X60.057 Y34.276 E7.76775
G1 X60.032 Y34.087 E7.78155
G1 X60.032 Y33.569 E7.81887
G1 X60.611 Y33.556 F5400.000
G1 X60.724 Y33.112 E7.85192 F630.000
G1 X60.945 Y32.710 E7.88498
G1 X61.259 Y32.377 E7.91803
G1 X61.645 Y32.131 E7.95108
G1 X62.081 Y31.990 E7.98414
G1 X62.538 Y31.961 E8.01719
G1 X62.780 Y31.990 E8.03479
G1 X63.208 Y32.105 E8.06675
G1 X63.434 Y32.246 E8.08595
G1 X63.876 Y32.612 E8.12736
G1 X64.087 Y32.872 E8.15156
G1 X64.246 Y33.258 E8.18167
G1 X64.337 Y33.616 E8.20835
G1 X64.360 Y33.855 E8.22567
G1 X64.294 Y34.306 E8.25851
G1 X64.206 Y34.535 E8.27627
G1 X64.070 Y34.830 E8.29967
G1 X63.868 Y35.043 E8.32089
G1 X63.735 Y35.227 E8.33724
G1 X63.250 Y35.544 E8.37907
G1 X62.963 Y35.610 E8.40032
G1 X62.749 Y35.689 E8.41672
G1 X62.179 Y35.684 E8.45785
G1 X61.681 Y35.530 E8.49552
G1 X61.339 Y35.300 E8.52523
G1 X61.092 Y35.095 E8.54837
G1 X60.744 Y34.556 E8.59473
G1 X60.633 Y34.183 E8.62274
G1 X60.611 Y34.014 E8.63511
G1 X60.611 Y33.642 E8.66189
G1 X60.258 Y33.264 F5400.000
G1 X60.724 Y33.112 F4320.000 E8.46758
G1 X60.945 Y32.710 F4320.000 E8.28627
G1 X61.259 Y32.377 F4320.000 E8.10494
G1 X61.645 Y32.131 F4320.000 E7.92362
G1 X62.081 Y31.990 F4320.000 E7.74231
G1 X62.538 Y31.961 F4320.000 E7.56100
G1 X62.780 Y31.990 F4320.000 E7.46446
G1 X63.208 Y32.105 F4320.000 E7.28912
G1 X63.434 Y32.246 F4320.000 E7.18383
G1 X63.876 Y32.612 F4320.000 E6.95663
G1 X64.087 Y32.872 F4320.000 E6.82388
G1 X64.246 Y33.258 F4320.000 E6.65870
G1 X64.337 Y33.616 F4320.000 E6.51239
G1 X64.360 Y33.855 F4320.000 E6.41738
G1 X64.294 Y34.306 F4320.000 E6.23720
G1 X64.206 Y34.535 F4320.000 E6.13979
G1 X64.070 Y34.830 F4320.000 E6.01142
G1 X63.868 Y35.043 F4320.000 E5.89503
G1 X63.735 Y35.227 F4320.000 E5.80533
G1 X63.250 Y35.544 F4320.000 E5.57588
G1 X62.963 Y35.610 F4320.000 E5.45931
G1 X62.749 Y35.689 F4320.000 E5.36932
G1 X62.179 Y35.684 F4320.000 E5.14372
G1 X61.681 Y35.530 F4320.000 E4.93707
G1 X61.339 Y35.300 F4320.000 E4.77408
G1 X61.092 Y35.095 F4320.000 E4.64717
G1 X60.744 Y34.556 F4320.000 E4.39286
G1 X60.739 Y34.541 F4320.000 E4.38689
G1 F1800.000 E4.16189
G92 E0
G1 X33.283 Y62.337 F5400.000
G1 E4.50000 F1800.000
G1 X33.634 Y62.668 E4.53478 F630.000
G1 X34.056 Y63.465 E4.59985
G1 X34.174 Y64.206 E4.65404
G1 X34.083 Y64.813 E4.69835
G1 X33.977 Y65.091 E4.71983
G1 X33.775 Y65.529 E4.75460
G1 X33.503 Y65.816 E4.78310
G1 X33.362 Y66.011 E4.80049
G1 X33.094 Y66.200 E4.82413
G1 X32.683 Y66.452 E4.85891
G1 X32.298 Y66.539 E4.88740
G1 X32.072 Y66.623 E4.90477
G1 X31.746 Y66.631 E4.92835
G1 X31.294 Y66.615 E4.96095
G1 X30.738 Y66.463 E5.00258
G1 X30.243 Y66.130 E5.04563
G1 X29.937 Y65.897 E5.07332
G1 X29.668 Y65.567 E5.10409
G1 X29.518 Y65.232 E5.13056
G1 X29.361 Y64.976 E5.15223
G1 X29.316 Y64.498 E5.18686
G1 X29.254 Y64.108 E5.21536
G1 X29.299 Y63.673 E5.24691
G1 X29.496 Y63.123 E5.28906
G1 X29.937 Y62.482 E5.34522
G1 X30.260 Y62.253 E5.37380
G1 X30.437 Y62.089 E5.39122
G1 X30.737 Y61.956 E5.41488
G1 X31.162 Y61.799 E5.44759
G1 X31.734 Y61.728 E5.48916
G1 X32.317 Y61.847 E5.53211
G1 X32.686 Y61.944 E5.55969
G1 X33.036 Y62.132 E5.58834
G1 X33.217 Y62.281 E5.60523
G1 X32.854 Y62.732 F5400.000
G1 X33.167 Y63.023 E5.63608 F630.000
G1 X33.499 Y63.651 E5.68736
G1 X33.588 Y64.203 E5.72775
G1 X33.516 Y64.678 E5.76235
G1 X33.443 Y64.867 E5.77696
G1 X33.289 Y65.200 E5.80348
G1 X33.057 Y65.445 E5.82784
G1 X32.950 Y65.594 E5.84107
G1 X32.462 Y65.909 E5.88293
G1 X32.133 Y65.983 E5.90730
G1 X31.961 Y66.047 E5.92051
G1 X31.392 Y66.039 E5.96161
G1 X30.973 Y65.924 E5.99291
G1 X30.342 Y65.478 E6.04866
G1 X30.165 Y65.261 E6.06895
G1 X30.031 Y64.961 E6.09262
G1 X29.924 Y64.788 E6.10730
G1 X29.837 Y64.092 E6.15787
G1 X29.867 Y63.809 E6.17842
G1 X30.026 Y63.367 E6.21233
G1 X30.349 Y62.899 E6.25339
G1 X30.625 Y62.703 E6.27779
G1 X30.760 Y62.579 E6.29104
G1 X30.955 Y62.492 E6.30642
G1 X31.290 Y62.368 E6.33225
G1 X31.721 Y62.316 E6.36353
G1 X32.473 Y62.486 E6.41917
G1 X32.712 Y62.615 E6.43876
G1 X32.787 Y62.676 E6.44576
G1 X33.260 Y62.598 F5400.000
G1 X59.806 Y64.349 F5400.000
G1 X59.895 Y63.741 E6.49011 F630.000
G1 X60.188 Y63.050 E6.54425
G1 X60.541 Y62.594 E6.58583
G1 X60.908 Y62.334 E6.61832
G1 X60.908 Y62.145 E6.63190
G1 X61.991 Y61.793 E6.71410
G1 X62.594 Y61.756 E6.75770
G1 X63.188 Y61.869 E6.80130
G1 X63.314 Y61.928 E6.81137
G1 X63.735 Y62.126 E6.84490
G1 X64.200 Y62.511 E6.88850
G1 X64.555 Y63.000 E6.93210
G1 X64.778 Y63.562 E6.97570
G1 X64.853 Y64.161 E7.01930
G1 X64.778 Y64.761 E7.06291
G1 X64.555 Y65.323 E7.10650
G1 X64.434 Y65.489 E7.12135
G1 X64.352 Y65.668 E7.13557
G1 X64.110 Y65.923 E7.16094
G1 X63.943 Y66.153 E7.18143
G1 X63.641 Y66.368 E7.20820
G1 X63.266 Y66.597 E7.23990
G1 X62.923 Y66.675 E7.26524
G1 X62.656 Y66.773 E7.28578
G1 X61.878 Y66.768 E7.34191
G1 X61.350 Y66.625 E7.38139
G1 X60.991 Y66.431 E7.41088
G1 X60.748 Y66.202 E7.43497
G1 X60.395 Y65.933 E7.46698
G1 X59.984 Y65.265 E7.52356
G1 X59.822 Y64.434 E7.58466
G1 X60.394 Y64.342 F5400.000
G1 X60.462 Y63.877 E7.61859 F630.000
G1 X60.550 Y63.647 E7.63636
G1 X60.682 Y63.362 E7.65902
G1 X60.953 Y63.011 E7.69099
G1 X61.202 Y62.834 E7.71304
G1 X61.278 Y62.753 E7.72104
G1 X61.486 Y62.621 E7.73885
G1 X61.486 Y62.566 E7.74283
G1 X62.101 Y62.366 E7.78943
G1 X62.558 Y62.338 E7.82248
G1 X63.008 Y62.423 E7.85553
G1 X63.422 Y62.618 E7.88859
G1 X63.775 Y62.910 E7.92164
G1 X64.044 Y63.281 E7.95470
G1 X64.213 Y63.707 E7.98775
G1 X64.270 Y64.161 E8.02080
G1 X64.213 Y64.616 E8.05386
G1 X64.044 Y65.042 E8.08691
G1 X63.933 Y65.195 E8.10059
G1 X63.866 Y65.339 E8.11205
G1 X63.664 Y65.553 E8.13328
G1 X63.531 Y65.736 E8.14963
G1 X63.322 Y65.884 E8.16812
G1 X63.045 Y66.054 E8.19152
G1 X62.758 Y66.119 E8.21274
G1 X62.545 Y66.197 E8.22913
G1 X61.976 Y66.193 E8.27022
G1 X61.558 Y66.080 E8.30147
G1 X61.332 Y65.958 E8.31996
G1 X61.123 Y65.760 E8.34076
G1 X60.831 Y65.538 E8.36719
G1 X60.532 Y65.052 E8.40842
G1 X60.410 Y64.427 E8.45433
G1 X59.995 Y64.093 F5400.000
G1 X59.283 Y63.970 F5400.000
G1 X59.218 Y64.356 E8.48257 F630.000
G1 X59.436 Y65.479 E8.56511
G1 X59.959 Y66.328 E8.63705
G1 X60.373 Y66.644 E8.67465
G1 X60.649 Y66.904 E8.70203
G1 X61.143 Y67.170 E8.74250
G1 X61.781 Y67.343 E8.79021
G1 X62.284 Y67.362 E8.82655
G1 X62.767 Y67.349 E8.86142
G1 X63.088 Y67.230 E8.88611
G1 X63.486 Y67.140 E8.91557
G1 X64.256 Y66.670 E8.98064
G1 X64.499 Y66.978 E9.00894
G1 X63.123 Y68.354 E9.14930
G1 X29.270 Y68.334 E11.59207
G1 X29.270 Y79.334 E12.38581
G1 X26.929 Y79.334 E12.55475
G1 X26.929 Y61.382 E13.85013
G1 X30.214 Y61.382 E14.08716
G1 X30.265 Y61.541 E14.09919
G1 X29.524 Y62.065 E14.16464
G1 X29.175 Y62.548 E14.20762
G1 X28.966 Y62.880 E14.23594
G1 X28.732 Y63.538 E14.28634
G1 X28.670 Y64.124 E14.32888
G1 X28.742 Y64.571 E14.36154
G1 X28.797 Y65.164 E14.40454
G1 X29.005 Y65.503 E14.43321
G1 X29.171 Y65.873 E14.46248
G1 X29.532 Y66.316 E14.50372
G1 X29.906 Y66.600 E14.53758
G1 X30.502 Y67.002 E14.58944
G1 X31.197 Y67.190 E14.64140
G1 X31.743 Y67.210 E14.68082
G1 X32.184 Y67.198 E14.71264
G1 X32.463 Y67.095 E14.73415
G1 X32.904 Y66.995 E14.76677
G1 X33.413 Y66.683 E14.80981
G1 X33.774 Y66.428 E14.84172
G1 X33.949 Y66.186 E14.86328
G1 X34.260 Y65.858 E14.89592
G1 X34.510 Y65.316 E14.93895
G1 X34.651 Y64.949 E14.96730
G1 X34.760 Y64.209 E15.02130
G1 X34.612 Y63.279 E15.08929
G1 X34.100 Y62.313 E15.16816
G1 X33.667 Y61.903 E15.21119
G1 X33.038 Y61.382 E15.27013
G1 X40.418 Y61.382 E15.80267
G1 X41.821 Y62.140 E15.91773
G1 X44.500 Y62.965 E16.12000
G1 X47.290 Y63.253 E16.32236
G1 X50.081 Y62.992 E16.52462
G1 X52.769 Y62.194 E16.72697
G1 X55.248 Y60.887 E16.92923
G1 X57.425 Y59.122 E17.13147
G1 X59.217 Y56.968 E17.33365
G1 X60.552 Y54.506 E17.53572
G1 X61.379 Y51.832 E17.73772
G1 X61.668 Y49.047 E17.93975
G1 X61.407 Y46.260 E18.14168
G1 X60.606 Y43.577 E18.34376
G1 X59.295 Y41.102 E18.54585
G1 X57.526 Y38.930 E18.74804
G1 X55.366 Y37.144 E18.95025
G1 X52.900 Y35.814 E19.15244
G1 X50.220 Y34.988 E19.35478
G1 X47.432 Y34.700 E19.55707
G1 X44.639 Y34.960 E19.75945
G1 X41.952 Y35.759 E19.96172
G1 X41.685 Y35.900 E19.98354
G1 X34.177 Y35.900 E20.52531
G1 X34.499 Y35.202 E20.58078
G1 X34.767 Y34.776 E20.61712
G1 X34.959 Y33.771 E20.69096
G1 X34.891 Y33.057 E20.74275
G1 X34.570 Y32.193 E20.80926
G1 X33.851 Y31.339 E20.88978
G1 X33.284 Y30.984 E20.93805
G1 X32.920 Y30.832 E20.96652
G1 X32.471 Y30.694 E21.00042
G1 X31.826 Y30.646 E21.04709
G1 X31.285 Y30.733 E21.08660
G1 X30.856 Y30.830 E21.11836
G1 X30.602 Y30.986 E21.13984
G1 X30.188 Y31.170 E21.17254
G1 X29.750 Y31.575 E21.21557
G1 X29.446 Y31.896 E21.24751
G1 X29.321 Y32.168 E21.26912
G1 X29.080 Y32.551 E21.30172
G1 X28.940 Y33.131 E21.34479
G1 X28.874 Y33.519 E21.37322
G1 X28.912 Y34.265 E21.42713
G1 X29.250 Y35.176 E21.49724
G1 X29.888 Y35.900 E21.56685
G1 X26.929 Y35.900 E21.78035
G1 X26.929 Y14.681 E23.31152
G1 X29.552 Y14.671 E23.50076
G1 X29.402 Y28.512 E24.49958
G1 X43.072 Y26.321 E25.49853
G1 X46.429 Y21.811 E25.90426
G1 X55.422 Y21.891 E26.55314
G1 X62.655 Y26.046 E27.15506
G1 X66.636 Y32.302 E27.69016
G1 X66.636 Y64.841 E30.03810
G1 X64.954 Y66.523 E30.20976
G1 X64.611 Y66.230 E30.24229
G1 X65.066 Y65.604 E30.29820
G1 X65.343 Y64.906 E30.35234
G1 X65.437 Y64.161 E30.40650
G1 X65.342 Y63.417 E30.46065
G1 X65.066 Y62.719 E30.51479
G1 X64.625 Y62.112 E30.56894
G1 X64.047 Y61.634 E30.62309
G1 X63.368 Y61.314 E30.67724
G1 X62.631 Y61.174 E30.73139
G1 X61.882 Y61.221 E30.78554
G1 X60.329 Y61.725 E30.90334
G1 X60.329 Y62.035 E30.92567
G1 X60.128 Y62.177 E30.94346
G1 X59.695 Y62.739 E30.99466
G1 X59.484 Y63.197 E31.03105
G1 X59.327 Y63.605 E31.06256
G1 X59.298 Y63.885 E31.08285
G1 X56.336 Y59.261 F5400.000
G1 X57.017 Y58.709 E31.14610 F630.000
G1 X58.735 Y56.642 E31.34005
G1 X60.016 Y54.280 E31.53389
G1 X60.809 Y51.715 E31.72765
G1 X61.087 Y49.044 E31.92144
G1 X60.836 Y46.371 E32.11513
G1 X60.068 Y43.797 E32.30897
G1 X58.811 Y41.423 E32.50281
G1 X57.113 Y39.339 E32.69678
G1 X55.041 Y37.626 E32.89076
G1 X52.675 Y36.350 E33.08475
G1 X50.104 Y35.557 E33.27889
G1 X47.429 Y35.281 E33.47297
G1 X44.750 Y35.531 E33.66713
G1 X42.172 Y36.298 E33.86120
G1 X41.828 Y36.479 E33.88925
G1 X32.323 Y36.479 E34.57511
G1 X32.269 Y36.286 E34.58957
G1 X32.947 Y35.870 E34.64702
G1 X33.310 Y35.709 E34.67567
G1 X33.665 Y35.380 E34.71054
G1 X33.889 Y35.144 E34.73404
G1 X33.989 Y34.926 E34.75137
G1 X34.216 Y34.565 E34.78210
G1 X34.375 Y33.740 E34.84277
G1 X34.322 Y33.187 E34.88283
G1 X34.065 Y32.495 E34.93613
G1 X33.462 Y31.779 E35.00365
G1 X33.017 Y31.500 E35.04160
G1 X32.723 Y31.376 E35.06461
G1 X32.374 Y31.269 E35.09097
G1 X31.842 Y31.230 E35.12940
G1 X31.077 Y31.374 E35.18559
G1 X30.872 Y31.499 E35.20292
G1 X30.511 Y31.660 E35.23148
G1 X30.157 Y31.987 E35.26626
G1 X29.931 Y32.225 E35.28990
G1 X29.831 Y32.444 E35.30731
G1 X29.620 Y32.778 E35.33580
G1 X29.458 Y33.541 E35.39207
G1 X29.488 Y34.153 E35.43632
G1 X29.755 Y34.875 E35.49182
G1 X30.405 Y35.648 E35.56474
G1 X30.730 Y35.784 E35.59012
G1 X31.539 Y36.292 E35.65903
G1 X31.485 Y36.479 E35.67307
G1 X26.351 Y36.479 E36.04354
G1 X26.351 Y14.104 E37.65805
G1 X30.137 Y14.091 E37.93124
G1 X29.988 Y27.832 E38.92290
G1 X42.748 Y25.787 E39.85539
G1 X46.141 Y21.230 E40.26534
G1 X55.578 Y21.314 E40.94636
