; generated by Slic3r 1.0.0RC2 on 2014-11-28 at 10:42:10

; layer_height = 0.30
; perimeters = 3
; top_solid_layers = 3
; bottom_solid_layers = 3
; fill_density = 0.3
; perimeter_speed = 30
; infill_speed = 50
; travel_speed = 90
; nozzle_diameter = 0.35
; filament_diameter = 1.75
; extrusion_multiplier = 1
; perimeters extrusion width = 0.35mm
; infill extrusion width = 0.37mm
; solid infill extrusion width = 0.37mm
; top infill extrusion width = 0.37mm
; first layer extrusion width = 0.60mm

G21 ; set units to millimeters
M109 S200;set extruder temp and start heating
G28 X0 Y0 Z0;home X and Y and Z
G29 ;probe bed
G90; set absolute coordinates
G92 E0; reset extruder distance
G1 Z3 F3000; get out of the bed after probe
G1 X10 Y10 F3000 ; move to back right corner
G90 ; use absolute coordinates
G92 E0
M82 ; use absolute distances for extrusion
G1 F2400.000 E-4.50000
G92 E0
G1 Z0.300 F5400.000
G1 X26.451 Y12.345 F5400.000
G1 E4.50000 F2400.000
G1 X27.011 Y11.565 E4.56543 F630.000
G1 X27.821 Y11.045 E4.63102
G1 X28.761 Y10.865 E4.69624
G1 X58.761 Y10.865 E6.74055
G1 X59.761 Y11.075 E6.81018
G1 X60.601 Y11.655 E6.87974
G1 X76.261 Y27.995 E8.42201
G1 X76.441 Y28.205 E8.44086
G1 X77.711 Y29.865 E8.58328
G1 X77.891 Y30.145 E8.60597
G1 X78.041 Y30.435 E8.62822
G1 X78.841 Y32.355 E8.76995
G1 X78.981 Y32.805 E8.80207
G1 X86.761 Y69.285 E11.34386
G1 X87.091 Y71.885 E11.52245
G1 X86.791 Y74.285 E11.68727
G1 X86.731 Y74.615 E11.71012
G1 X86.621 Y74.935 E11.73318
G1 X85.821 Y76.865 E11.87555
G1 X85.681 Y77.155 E11.89749
G1 X85.491 Y77.435 E11.92055
G1 X84.201 Y79.125 E12.06543
G1 X67.981 Y99.695 E13.85050
G1 X67.771 Y99.925 E13.87173
G1 X67.541 Y100.125 E13.89250
G1 X66.461 Y100.965 E13.98573
G1 X61.461 Y104.635 E14.40838
G1 X60.741 Y105.005 E14.46354
G1 X59.951 Y105.135 E14.51810
G1 X32.951 Y105.135 E16.35798
G1 X32.161 Y105.005 E16.41254
G1 X31.441 Y104.635 E16.46770
G1 X26.441 Y100.965 E16.89035
G1 X25.361 Y100.135 E16.98317
G1 X25.111 Y99.915 E17.00586
G1 X24.901 Y99.675 E17.02759
G1 X24.101 Y98.645 E17.11647
G1 X23.901 Y98.355 E17.14047
G1 X23.751 Y98.045 E17.16394
G1 X23.261 Y96.835 E17.25290
G1 X23.161 Y96.525 E17.27509
G1 X23.101 Y96.205 E17.29728
G1 X22.901 Y94.575 E17.40919
G1 X22.991 Y71.875 E18.95606
G1 X26.221 Y13.275 E22.95535
G1 X26.431 Y12.424 E23.01504
G1 X27.011 Y11.565 F4320.000 E22.46787
G1 X27.821 Y11.045 F4320.000 E21.95986
G1 X28.761 Y10.865 F4320.000 E21.45473
G1 X33.905 Y10.865 F4320.000 E18.74004
G1 F2400.000 E18.51504
G92 E0
G1 X30.451 Y91.581 F5400.000
G1 E4.50000 F2400.000
G1 X31.229 Y91.683 E4.55345 F630.000
G1 X31.953 Y91.983 E4.60690
G1 X32.576 Y92.461 E4.66036
G1 X33.053 Y93.083 E4.71380
G1 X33.353 Y93.808 E4.76725
G1 X33.456 Y94.585 E4.82071
G1 X33.353 Y95.363 E4.87415
G1 X33.053 Y96.088 E4.92760
G1 X32.576 Y96.710 E4.98106
G1 X31.953 Y97.187 E5.03451
G1 X31.229 Y97.488 E5.08796
G1 X30.451 Y97.590 E5.14141
G1 X29.673 Y97.488 E5.19486
G1 X28.949 Y97.187 E5.24831
G1 X28.326 Y96.710 E5.30176
G1 X27.849 Y96.088 E5.35521
G1 X27.549 Y95.363 E5.40866
G1 X27.446 Y94.585 E5.46212
G1 X27.549 Y93.808 E5.51556
G1 X27.849 Y93.083 E5.56902
G1 X28.326 Y92.461 E5.62247
G1 X28.949 Y91.983 E5.67593
G1 X29.673 Y91.683 E5.72938
G1 X30.370 Y91.591 E5.77724
G1 X30.451 Y92.132 F5400.000
G1 X31.086 Y92.215 E5.82089 F630.000
G1 X31.678 Y92.460 E5.86454
G1 X32.186 Y92.850 E5.90819
G1 X32.576 Y93.358 E5.95183
G1 X32.821 Y93.950 E5.99548
G1 X32.905 Y94.585 E6.03913
G1 X32.821 Y95.220 E6.08278
G1 X32.576 Y95.812 E6.12642
G1 X32.186 Y96.320 E6.17008
G1 X31.678 Y96.710 E6.21372
G1 X31.086 Y96.955 E6.25737
G1 X30.451 Y97.039 E6.30102
G1 X29.816 Y96.955 E6.34467
G1 X29.224 Y96.710 E6.38831
G1 X28.716 Y96.320 E6.43196
G1 X28.326 Y95.812 E6.47561
G1 X28.081 Y95.220 E6.51926
G1 X27.997 Y94.585 E6.56291
G1 X28.081 Y93.950 E6.60655
G1 X28.326 Y93.358 E6.65021
G1 X28.716 Y92.850 E6.69386
G1 X29.224 Y92.460 E6.73751
G1 X29.816 Y92.215 E6.78115
G1 X30.370 Y92.142 E6.81922
G1 X30.451 Y92.683 F5400.000
G1 X30.944 Y92.748 E6.85306 F630.000
G1 X31.402 Y92.938 E6.88690
G1 X31.796 Y93.240 E6.92075
G1 X32.099 Y93.634 E6.95460
G1 X32.289 Y94.093 E6.98844
G1 X32.354 Y94.585 E7.02229
G1 X32.289 Y95.078 E7.05613
G1 X32.099 Y95.537 E7.08998
G1 X31.796 Y95.931 E7.12382
G1 X31.402 Y96.233 E7.15767
G1 X30.944 Y96.423 E7.19151
G1 X30.451 Y96.488 E7.22536
G1 X29.959 Y96.423 E7.25920
G1 X29.500 Y96.233 E7.29305
G1 X29.106 Y95.931 E7.32689
G1 X28.803 Y95.537 E7.36074
G1 X28.613 Y95.078 E7.39458
G1 X28.549 Y94.585 E7.42843
G1 X28.613 Y94.093 E7.46228
G1 X28.803 Y93.634 E7.49612
G1 X29.106 Y93.240 E7.52997
G1 X29.500 Y92.938 E7.56381
G1 X29.959 Y92.748 E7.59766
G1 X30.370 Y92.693 E7.62592
G1 X30.718 Y92.264 F5400.000
G1 X59.446 Y94.585 F5400.000
G1 X59.549 Y93.807 E7.67938 F630.000
G1 X59.849 Y93.083 E7.73283
G1 X60.326 Y92.461 E7.78627
G1 X60.949 Y91.983 E7.83973
G1 X61.674 Y91.683 E7.89318
G1 X62.451 Y91.581 E7.94663
G1 X63.229 Y91.683 E8.00008
G1 X63.953 Y91.983 E8.05352
G1 X64.576 Y92.461 E8.10698
G1 X65.053 Y93.083 E8.16043
G1 X65.353 Y93.808 E8.21388
G1 X65.456 Y94.585 E8.26733
G1 X65.353 Y95.363 E8.32078
G1 X65.053 Y96.088 E8.37423
G1 X64.576 Y96.710 E8.42768
G1 X63.953 Y97.187 E8.48114
G1 X63.229 Y97.488 E8.53459
G1 X62.451 Y97.590 E8.58803
G1 X61.674 Y97.488 E8.64148
G1 X60.949 Y97.187 E8.69494
G1 X60.326 Y96.710 E8.74839
G1 X59.849 Y96.088 E8.80185
G1 X59.549 Y95.363 E8.85529
G1 X59.457 Y94.667 E8.90316
G1 X59.997 Y94.585 F5400.000
G1 X60.081 Y93.950 E8.94682 F630.000
G1 X60.326 Y93.358 E8.99046
G1 X60.716 Y92.850 E9.03411
G1 X61.224 Y92.460 E9.07776
G1 X61.816 Y92.215 E9.12141
G1 X62.451 Y92.132 E9.16505
G1 X63.086 Y92.215 E9.20870
G1 X63.678 Y92.460 E9.25235
G1 X64.186 Y92.850 E9.29600
G1 X64.576 Y93.358 E9.33964
G1 X64.821 Y93.950 E9.38329
G1 X64.905 Y94.585 E9.42694
G1 X64.821 Y95.220 E9.47059
G1 X64.576 Y95.812 E9.51424
G1 X64.186 Y96.320 E9.55788
G1 X63.678 Y96.710 E9.60153
G1 X63.086 Y96.955 E9.64518
G1 X62.451 Y97.039 E9.68882
G1 X61.816 Y96.955 E9.73247
G1 X61.224 Y96.710 E9.77612
G1 X60.716 Y96.320 E9.81978
G1 X60.326 Y95.812 E9.86343
G1 X60.081 Y95.220 E9.90707
G1 X60.008 Y94.667 E9.94514
G1 X60.549 Y94.585 F5400.000
G1 X60.613 Y94.093 E9.97898 F630.000
G1 X60.803 Y93.634 E10.01283
G1 X61.106 Y93.240 E10.04667
G1 X61.500 Y92.938 E10.08052
G1 X61.959 Y92.748 E10.11436
G1 X62.451 Y92.683 E10.14821
G1 X62.944 Y92.748 E10.18205
G1 X63.402 Y92.938 E10.21590
G1 X63.796 Y93.240 E10.24974
G1 X64.099 Y93.634 E10.28359
G1 X64.289 Y94.093 E10.31743
G1 X64.354 Y94.585 E10.35128
G1 X64.289 Y95.078 E10.38512
G1 X64.099 Y95.537 E10.41897
G1 X63.796 Y95.931 E10.45281
G1 X63.402 Y96.233 E10.48666
G1 X62.944 Y96.423 E10.52051
G1 X62.451 Y96.488 E10.55435
G1 X61.959 Y96.423 E10.58820
G1 X61.500 Y96.233 E10.62204
G1 X61.106 Y95.931 E10.65589
G1 X60.803 Y95.537 E10.68973
G1 X60.613 Y95.078 E10.72358
G1 X60.559 Y94.667 E10.75184
G1 X60.130 Y94.318 F5400.000
G1 X59.994 Y91.978 F5400.000
G1 X60.653 Y91.472 E10.80851 F630.000
G1 X61.521 Y91.112 E10.87247
G1 X62.451 Y90.990 E10.93643
G1 X63.382 Y91.112 E11.00038
G1 X64.249 Y91.472 E11.06434
G1 X64.993 Y92.043 E11.12830
G1 X65.565 Y92.788 E11.19225
G1 X65.870 Y93.524 E11.24656
G1 X65.924 Y93.655 E11.25621
G1 X66.046 Y94.585 E11.32017
G1 X65.924 Y95.516 E11.38412
G1 X65.565 Y96.383 E11.44808
G1 X64.993 Y97.127 E11.51204
G1 X64.249 Y97.699 E11.57599
G1 X63.382 Y98.058 E11.63995
G1 X62.451 Y98.181 E11.70391
G1 X61.521 Y98.058 E11.76787
G1 X58.558 Y96.831 E11.98635
G1 X58.558 Y101.193 E12.28355
G1 X34.344 Y101.193 E13.93363
G1 X34.344 Y96.831 E14.23083
G1 X31.382 Y98.058 E14.44931
G1 X30.451 Y98.181 E14.51327
G1 X29.521 Y98.058 E14.57723
G1 X28.653 Y97.699 E14.64119
G1 X27.909 Y97.127 E14.70514
G1 X27.337 Y96.383 E14.76910
G1 X26.978 Y95.516 E14.83306
G1 X26.856 Y94.585 E14.89701
G1 X26.978 Y93.655 E14.96097
G1 X27.337 Y92.788 E15.02493
G1 X27.909 Y92.043 E15.08888
G1 X28.653 Y91.472 E15.15284
G1 X29.521 Y91.112 E15.21680
G1 X30.451 Y90.990 E15.28075
G1 X31.382 Y91.112 E15.34471
G1 X32.249 Y91.472 E15.40867
G1 X32.909 Y91.978 E15.46534
G1 X59.912 Y91.978 E17.30544
G1 X59.808 Y91.432 F5400.000
G1 X60.378 Y90.994 E17.35437 F630.000
G1 X61.378 Y90.580 E17.42813
G1 X62.451 Y90.439 E17.50189
G1 X63.524 Y90.580 E17.57565
G1 X64.524 Y90.994 E17.64941
G1 X65.383 Y91.653 E17.72317
G1 X66.042 Y92.512 E17.79693
G1 X66.456 Y93.512 E17.87069
G1 X66.597 Y94.585 E17.94445
G1 X66.456 Y95.658 E18.01821
G1 X66.042 Y96.658 E18.09197
G1 X65.383 Y97.517 E18.16573
G1 X64.524 Y98.176 E18.23949
G1 X63.524 Y98.590 E18.31325
G1 X62.451 Y98.732 E18.38701
G1 X61.378 Y98.590 E18.46077
G1 X59.105 Y97.649 E18.62843
G1 X59.105 Y101.739 E18.90715
G1 X33.797 Y101.739 E20.63169
G1 X33.797 Y97.649 E20.91040
G1 X31.524 Y98.590 E21.07807
G1 X30.451 Y98.732 E21.15183
G1 X29.378 Y98.590 E21.22559
G1 X28.378 Y98.176 E21.29935
G1 X27.519 Y97.517 E21.37311
G1 X26.860 Y96.658 E21.44687
G1 X26.446 Y95.658 E21.52063
G1 X26.305 Y94.585 E21.59439
G1 X26.446 Y93.512 E21.66815
G1 X26.860 Y92.512 E21.74191
G1 X27.519 Y91.653 E21.81567
G1 X28.378 Y90.994 E21.88943
G1 X29.378 Y90.580 E21.96319
G1 X30.451 Y90.439 E22.03695
G1 X31.524 Y90.580 E22.11071
G1 X32.524 Y90.994 E22.18446
G1 X33.094 Y91.432 E22.23340
G1 X59.726 Y91.432 E24.04822
G1 X59.623 Y90.885 F5400.000
G1 X60.102 Y90.517 E24.08942 F504.000
G1 X61.235 Y90.048 E24.17299
G1 X62.451 Y89.888 E24.25655
G1 X63.667 Y90.048 E24.34011
G1 X64.800 Y90.517 E24.42367
G1 X65.773 Y91.264 E24.50724
G1 X66.519 Y92.237 E24.59080
G1 X66.988 Y93.369 E24.67436
G1 X67.149 Y94.585 E24.75792
G1 X66.988 Y95.801 E24.84149
G1 X66.519 Y96.934 E24.92505
G1 X65.773 Y97.907 E25.00861
G1 X64.800 Y98.653 E25.09217
G1 X63.667 Y99.123 E25.17574
G1 X62.451 Y99.283 E25.25930
G1 X61.235 Y99.123 E25.34286
G1 X59.651 Y98.466 E25.45971
G1 X59.651 Y102.285 E25.71994
G1 X33.251 Y102.285 E27.51893
G1 X33.251 Y98.466 E27.77916
G1 X31.667 Y99.123 E27.89601
G1 X30.451 Y99.283 E27.97958
G1 X29.235 Y99.123 E28.06314
G1 X28.102 Y98.653 E28.14670
G1 X27.130 Y97.907 E28.23026
G1 X26.383 Y96.934 E28.31383
G1 X25.914 Y95.801 E28.39739
G1 X25.754 Y94.585 E28.48095
G1 X25.914 Y93.369 E28.56452
G1 X25.945 Y93.294 E28.57012
G1 X26.383 Y92.237 E28.64808
G1 X27.130 Y91.264 E28.73164
G1 X28.102 Y90.517 E28.81520
G1 X29.235 Y90.048 E28.89877
G1 X30.451 Y89.888 E28.98233
G1 X31.667 Y90.048 E29.06589
G1 X32.800 Y90.517 E29.14945
G1 X33.279 Y90.885 E29.19065
G1 X59.541 Y90.885 E30.98020
G1 X60.070 Y91.199 F5400.000
G1 X60.102 Y90.517 F4320.000 E30.62013
G1 X61.235 Y90.048 F4320.000 E29.97294
G1 X62.451 Y89.888 F4320.000 E29.32574
G1 X63.667 Y90.048 F4320.000 E28.67854
G1 X64.800 Y90.517 F4320.000 E28.03135
G1 X65.773 Y91.264 F4320.000 E27.38415
G1 X66.519 Y92.237 F4320.000 E26.73696
G1 X66.542 Y92.292 F4320.000 E26.70520
G1 F2400.000 E26.48020
G92 E0
G1 X62.549 Y74.696 F5400.000
G1 E4.50000 F2400.000
G1 X61.823 Y74.600 E4.54989 F630.000
G1 X61.147 Y74.320 E4.59979
G1 X60.566 Y73.874 E4.64968
G1 X60.120 Y73.293 E4.69957
G1 X59.840 Y72.617 E4.74947
G1 X59.744 Y71.891 E4.79936
G1 X59.840 Y71.165 E4.84925
G1 X60.120 Y70.489 E4.89915
G1 X60.566 Y69.908 E4.94904
G1 X61.147 Y69.462 E4.99893
G1 X61.823 Y69.182 E5.04883
G1 X62.549 Y69.086 E5.09872
G1 X63.275 Y69.182 E5.14861
G1 X63.951 Y69.462 E5.19851
G1 X64.532 Y69.908 E5.24840
G1 X64.978 Y70.489 E5.29829
G1 X65.258 Y71.165 E5.34819
G1 X65.354 Y71.891 E5.39808
G1 X65.258 Y72.617 E5.44797
G1 X64.978 Y73.293 E5.49787
G1 X64.532 Y73.874 E5.54776
G1 X63.951 Y74.320 E5.59766
G1 X63.275 Y74.600 E5.64755
G1 X62.630 Y74.685 E5.69186
G1 X62.549 Y74.145 F5400.000
G1 X61.966 Y74.068 E5.73195 F630.000
G1 X61.422 Y73.843 E5.77204
G1 X60.955 Y73.485 E5.81213
G1 X60.597 Y73.018 E5.85222
G1 X60.372 Y72.474 E5.89231
G1 X60.295 Y71.891 E5.93240
G1 X60.372 Y71.308 E5.97249
G1 X60.597 Y70.764 E6.01258
G1 X60.955 Y70.298 E6.05267
G1 X61.422 Y69.939 E6.09276
G1 X61.966 Y69.714 E6.13285
G1 X62.549 Y69.637 E6.17294
G1 X63.132 Y69.714 E6.21303
G1 X63.676 Y69.939 E6.25312
G1 X64.142 Y70.298 E6.29321
G1 X64.501 Y70.764 E6.33330
G1 X64.726 Y71.308 E6.37339
G1 X64.803 Y71.891 E6.41348
G1 X64.726 Y72.474 E6.45357
G1 X64.501 Y73.018 E6.49366
G1 X64.142 Y73.485 E6.53376
G1 X63.676 Y73.843 E6.57385
G1 X63.132 Y74.068 E6.61394
G1 X62.630 Y74.134 E6.64844
G1 X62.549 Y73.594 F5400.000
G1 X62.108 Y73.536 E6.67873 F630.000
G1 X61.698 Y73.366 E6.70902
G1 X61.345 Y73.095 E6.73930
G1 X61.074 Y72.742 E6.76959
G1 X60.904 Y72.332 E6.79988
G1 X60.846 Y71.891 E6.83017
G1 X60.904 Y71.450 E6.86045
G1 X61.074 Y71.040 E6.89074
G1 X61.345 Y70.687 E6.92103
G1 X61.698 Y70.417 E6.95132
G1 X62.108 Y70.247 E6.98160
G1 X62.549 Y70.189 E7.01189
G1 X62.990 Y70.247 E7.04218
G1 X63.400 Y70.417 E7.07247
G1 X63.753 Y70.687 E7.10275
G1 X64.023 Y71.040 E7.13304
G1 X64.193 Y71.450 E7.16333
G1 X64.251 Y71.891 E7.19362
G1 X64.193 Y72.332 E7.22390
G1 X64.023 Y72.742 E7.25419
G1 X63.753 Y73.095 E7.28448
G1 X63.400 Y73.366 E7.31477
G1 X62.990 Y73.536 E7.34505
G1 X62.630 Y73.583 E7.36976
G1 X62.310 Y73.969 F5400.000
G1 X33.354 Y71.891 F5400.000
G1 X33.258 Y72.617 E7.41965 F630.000
G1 X32.978 Y73.293 E7.46954
G1 X32.532 Y73.874 E7.51944
G1 X31.951 Y74.320 E7.56933
G1 X31.275 Y74.600 E7.61922
G1 X30.549 Y74.696 E7.66912
G1 X29.823 Y74.600 E7.71901
G1 X29.147 Y74.320 E7.76890
G1 X28.566 Y73.874 E7.81879
G1 X28.120 Y73.293 E7.86869
G1 X27.840 Y72.617 E7.91859
G1 X27.744 Y71.891 E7.96848
G1 X27.840 Y71.165 E8.01837
G1 X28.120 Y70.489 E8.06826
G1 X28.566 Y69.908 E8.11816
G1 X29.147 Y69.462 E8.16805
G1 X29.823 Y69.182 E8.21794
G1 X30.549 Y69.086 E8.26784
G1 X31.275 Y69.182 E8.31773
G1 X31.951 Y69.462 E8.36762
G1 X32.532 Y69.908 E8.41751
G1 X32.978 Y70.489 E8.46741
G1 X33.258 Y71.165 E8.51731
G1 X33.343 Y71.810 E8.56161
G1 X32.803 Y71.891 F5400.000
G1 X32.726 Y72.474 E8.60170 F630.000
G1 X32.501 Y73.018 E8.64179
G1 X32.142 Y73.485 E8.68189
G1 X31.676 Y73.843 E8.72198
G1 X31.132 Y74.068 E8.76207
G1 X30.549 Y74.145 E8.80216
G1 X29.966 Y74.068 E8.84225
G1 X29.422 Y73.843 E8.88234
G1 X28.955 Y73.485 E8.92242
G1 X28.597 Y73.018 E8.96252
G1 X28.372 Y72.474 E9.00261
G1 X28.295 Y71.891 E9.04270
G1 X28.372 Y71.308 E9.08279
G1 X28.597 Y70.764 E9.12288
G1 X28.955 Y70.298 E9.16297
G1 X29.422 Y69.939 E9.20306
G1 X29.966 Y69.714 E9.24315
G1 X30.549 Y69.637 E9.28324
G1 X31.132 Y69.714 E9.32333
G1 X31.676 Y69.939 E9.36342
G1 X32.142 Y70.298 E9.40351
G1 X32.501 Y70.764 E9.44360
G1 X32.726 Y71.308 E9.48369
G1 X32.792 Y71.810 E9.51820
G1 X32.251 Y71.891 F5400.000
G1 X32.193 Y72.332 E9.54849 F630.000
G1 X32.023 Y72.742 E9.57877
G1 X31.753 Y73.095 E9.60906
G1 X31.400 Y73.366 E9.63935
G1 X30.990 Y73.536 E9.66964
G1 X30.549 Y73.594 E9.69992
G1 X30.108 Y73.536 E9.73021
G1 X29.698 Y73.366 E9.76050
G1 X29.345 Y73.095 E9.79078
G1 X29.074 Y72.742 E9.82107
G1 X28.904 Y72.332 E9.85136
G1 X28.846 Y71.891 E9.88165
G1 X28.904 Y71.450 E9.91193
G1 X29.074 Y71.040 E9.94222
G1 X29.345 Y70.687 E9.97251
G1 X29.698 Y70.417 E10.00280
G1 X30.108 Y70.247 E10.03309
G1 X30.549 Y70.189 E10.06337
G1 X30.990 Y70.247 E10.09366
G1 X31.400 Y70.417 E10.12395
G1 X31.753 Y70.687 E10.15423
G1 X32.023 Y71.040 E10.18452
G1 X32.193 Y71.450 E10.21481
G1 X32.241 Y71.810 E10.23951
G1 X32.626 Y72.130 F5400.000
G1 X32.193 Y72.332 F4320.000 E9.98744
G1 X32.023 Y72.742 F4320.000 E9.75285
G1 X31.753 Y73.095 F4320.000 E9.51827
G1 X31.400 Y73.366 F4320.000 E9.28370
G1 X30.990 Y73.536 F4320.000 E9.04912
G1 X30.549 Y73.594 F4320.000 E8.81454
G1 X30.108 Y73.536 F4320.000 E8.57996
G1 X29.698 Y73.366 F4320.000 E8.34538
G1 X29.345 Y73.095 F4320.000 E8.11081
G1 X29.074 Y72.742 F4320.000 E7.87623
G1 X28.904 Y72.332 F4320.000 E7.64164
G1 X28.846 Y71.891 F4320.000 E7.40707
G1 X28.904 Y71.450 F4320.000 E7.17250
G1 X29.074 Y71.040 F4320.000 E6.93791
G1 X29.345 Y70.687 F4320.000 E6.70333
G1 X29.698 Y70.417 F4320.000 E6.46875
G1 X30.108 Y70.247 F4320.000 E6.23418
G1 X30.549 Y70.189 F4320.000 E5.99960
G1 X30.615 Y70.197 F4320.000 E5.96451
G1 F2400.000 E5.73951
G92 E0
G1 X73.544 Y71.891 F5400.000
G1 E4.50000 F2400.000
G1 X73.647 Y71.113 E4.55345 F630.000
G1 X73.947 Y70.389 E4.60690
G1 X74.424 Y69.766 E4.66035
G1 X75.047 Y69.289 E4.71381
G1 X75.771 Y68.989 E4.76726
