; generated by Slic3r 1.0.0RC2 on 2014-11-10 at 14:34:13

; layer_height = 0.30
; perimeters = 3
; top_solid_layers = 3
; bottom_solid_layers = 3
; fill_density = 0.3
; perimeter_speed = 30
; infill_speed = 50
; travel_speed = 90
; nozzle_diameter = 0.5
; filament_diameter = 1.75
; extrusion_multiplier = 1
; perimeters extrusion width = 0.50mm
; infill extrusion width = 0.70mm
; solid infill extrusion width = 0.70mm
; top infill extrusion width = 0.70mm
; first layer extrusion width = 0.60mm

G21 ; set units to millimeters
M109 S200;set extruder temp and start heating
G28 X0 Y0 Z0;home X and Y and Z
G29 ;probe bed
G90; set absolute coordinates
G92 E0; reset extruder distance
G1 Z3 F3000; get out of the bed after probe
G1 X10 Y10 F3000 ; move to back right corner
G90 ; use absolute coordinates
G92 E0
M82 ; use absolute distances for extrusion
M106 S204
G1 F1800.000 E-4.50000
G92 E0
G1 Z0.300 F5400.000
G1 X43.820 Y34.473 F5400.000
G1 E4.50000 F1800.000
G1 X44.390 Y33.903 E4.55817 F630.000
G1 X45.110 Y33.543 E4.61625
G1 X45.900 Y33.413 E4.67403
G1 X85.930 Y33.413 E7.56254
G1 X129.630 Y33.903 E10.71607
G1 X130.560 Y34.093 E10.78456
G1 X131.360 Y34.593 E10.85264
G1 X131.920 Y35.353 E10.92076
G1 X132.170 Y36.263 E10.98886
G1 X137.130 Y95.633 E15.28784
G1 X137.130 Y143.633 E18.75146
G1 X137.000 Y144.423 E18.80923
G1 X136.640 Y145.143 E18.86731
G1 X136.080 Y145.713 E18.92497
G1 X135.360 Y146.083 E18.98339
G1 X134.570 Y146.213 E19.04116
G1 X87.470 Y146.583 E22.43994
G1 X45.450 Y146.583 E25.47204
G1 X44.650 Y146.453 E25.53053
G1 X43.930 Y146.093 E25.58862
G1 X43.360 Y145.523 E25.64678
G1 X43.000 Y144.803 E25.70487
G1 X42.870 Y144.003 E25.76335
G1 X42.870 Y95.983 E29.22841
G1 X43.320 Y35.973 E33.55878
G1 X43.450 Y35.183 E33.61655
G1 X43.780 Y34.550 E33.66806
G1 X44.390 Y33.903 F4320.000 E33.31606
G1 X45.110 Y33.543 F4320.000 E32.99742
G1 X45.900 Y33.413 F4320.000 E32.68051
G1 X54.205 Y33.413 F4320.000 E29.39306
G1 F1800.000 E29.16806
G92 E0
G1 X46.907 Y97.464 F5400.000
G1 E4.50000 F1800.000
G1 X85.993 Y97.464 E7.32038 F630.000
G1 X85.993 Y142.550 E10.57372
G1 X46.907 Y142.550 E13.39410
G1 X46.907 Y97.551 E16.64117
G1 X46.328 Y96.886 F5400.000
G1 X86.571 Y96.886 E19.54505 F630.000
G1 X86.571 Y143.129 E22.88188
G1 X46.328 Y143.129 E25.78575
G1 X46.328 Y96.973 E29.11632
G1 X45.750 Y96.307 F5400.000
G1 X87.150 Y96.307 E32.10369 F504.000
G1 X87.150 Y143.707 E35.52401
G1 X45.750 Y143.707 E38.51138
G1 X45.750 Y96.394 E41.92544
G1 X46.251 Y96.596 F5400.000
G1 X57.050 Y96.520 F4320.000 E37.65044
G1 F1800.000 E37.42544
G92 E0
G1 X94.007 Y97.092 F5400.000
G1 E4.50000 F1800.000
G1 X133.093 Y97.092 E7.32038 F630.000
G1 X133.093 Y142.178 E10.57372
G1 X94.007 Y142.178 E13.39410
G1 X94.007 Y97.179 E16.64117
G1 X93.429 Y96.513 F5400.000
G1 X133.672 Y96.513 E19.54505 F630.000
G1 X133.672 Y142.756 E22.88188
G1 X93.429 Y142.756 E25.78576
G1 X93.429 Y96.600 E29.11632
G1 X92.850 Y95.935 F5400.000
G1 X134.250 Y95.935 E32.10369 F504.000
G1 X134.250 Y143.335 E35.52401
G1 X92.850 Y143.335 E38.51138
G1 X92.850 Y96.022 E41.92544
G1 X93.351 Y96.224 F5400.000
G1 X104.151 Y96.148 F4320.000 E37.65044
G1 F1800.000 E37.42544
G92 E0
G1 X91.060 Y87.034 F5400.000
G1 E4.50000 F1800.000
G1 X91.060 Y37.948 E8.04197 F630.000
G1 X128.146 Y37.948 E10.71803
G1 X128.146 Y87.034 E14.26000
G1 X91.147 Y87.034 E16.92981
G1 X90.481 Y87.613 F5400.000
G1 X90.481 Y37.370 E20.55527 F630.000
G1 X128.724 Y37.370 E23.31483
G1 X128.724 Y87.613 E26.94029
G1 X90.568 Y87.613 E29.69359
G1 X89.903 Y88.191 F5400.000
G1 X89.903 Y36.791 E33.40254 F504.000
G1 X129.303 Y36.791 E36.24560
G1 X129.303 Y88.191 E39.95455
G1 X89.990 Y88.191 E42.79134
G1 X90.192 Y87.690 F5400.000
G1 X90.131 Y76.890 F4320.000 E38.51634
G1 F1800.000 E38.29134
G92 E0
G1 X84.449 Y86.536 F5400.000
G1 E4.50000 F1800.000
G1 X47.363 Y86.536 E7.17607 F630.000
G1 X47.363 Y37.450 E10.71803
G1 X84.449 Y37.450 E13.39410
G1 X84.449 Y86.449 E16.92981
G1 X85.028 Y87.114 F5400.000
G1 X46.785 Y87.114 E19.68936 F630.000
G1 X46.785 Y36.871 E23.31483
G1 X85.028 Y36.871 E26.07438
G1 X85.028 Y87.027 E29.69358
G1 X85.606 Y87.693 F5400.000
G1 X46.206 Y87.693 E32.53664 F504.000
G1 X46.206 Y36.293 E36.24559
G1 X85.606 Y36.293 E39.08864
G1 X85.606 Y87.606 E42.79134
G1 X85.105 Y87.404 F5400.000
G1 X74.305 Y87.484 F4320.000 E38.51634
G1 F1800.000 E38.29134
G92 E0
G1 X85.544 Y97.855 F5400.000
G1 E4.50000 F1800.000
G1 X85.602 Y97.913 E4.50599 F1050.000
G1 X85.602 Y98.738 E4.56601
G1 X84.719 Y97.855 E4.65688
G1 X83.894 Y97.855 E4.71690
G1 X85.602 Y99.563 E4.89264
G1 X85.602 Y100.388 E4.95266
G1 X83.069 Y97.855 E5.21329
G1 X82.244 Y97.855 E5.27331
G1 X85.602 Y101.213 E5.61882
G1 X85.602 Y102.037 E5.67883
G1 X81.419 Y97.855 E6.10922
G1 X80.594 Y97.855 E6.16924
G1 X85.602 Y102.862 E6.68450
G1 X85.602 Y103.687 E6.74452
G1 X79.769 Y97.855 E7.34467
G1 X78.945 Y97.855 E7.40469
G1 X85.602 Y104.512 E8.08971
G1 X85.602 Y105.337 E8.14973
G1 X78.120 Y97.855 E8.91963
G1 X77.295 Y97.855 E8.97965
G1 X85.602 Y106.162 E9.83443
G1 X85.602 Y106.987 E9.89445
G1 X76.470 Y97.855 E10.83411
G1 X75.645 Y97.855 E10.89413
G1 X85.602 Y107.812 E11.91867
G1 X85.602 Y108.637 E11.97869
G1 X74.820 Y97.855 E13.08811
G1 X73.995 Y97.855 E13.14813
G1 X85.602 Y109.462 E14.34243
G1 X85.602 Y110.287 E14.40245
G1 X73.170 Y97.855 E15.68162
G1 X72.345 Y97.855 E15.74164
G1 X85.602 Y111.112 E17.10570
G1 X85.602 Y111.937 E17.16572
G1 X71.520 Y97.855 E18.61465
G1 X70.695 Y97.855 E18.67467
G1 X85.602 Y112.762 E20.20849
G1 X85.602 Y113.587 E20.26851
G1 X69.870 Y97.855 E21.88720
G1 X69.045 Y97.855 E21.94722
G1 X85.602 Y114.412 E23.65079
G1 X85.602 Y115.237 E23.71081
G1 X68.220 Y97.855 E25.49927
G1 X67.395 Y97.855 E25.55928
G1 X85.602 Y116.061 E27.43262
G1 X85.602 Y116.886 E27.49264
G1 X66.570 Y97.855 E29.45085
G1 X65.745 Y97.855 E29.51087
G1 X85.602 Y117.711 E31.55396
G1 X85.602 Y118.536 E31.61398
G1 X64.921 Y97.855 E33.74195
G1 X64.096 Y97.855 E33.80196
G1 X85.602 Y119.361 E36.01481
G1 X85.602 Y120.186 E36.07483
G1 X63.271 Y97.855 E38.37256
G1 X62.446 Y97.855 E38.43258
G1 X85.602 Y121.011 E40.81519
G1 X85.602 Y121.836 E40.87521
G1 X61.621 Y97.855 E43.34269
G1 X60.796 Y97.855 E43.40271
G1 X85.602 Y122.661 E45.95508
G1 X85.602 Y123.486 E46.01510
G1 X59.971 Y97.855 E48.65234
G1 X59.146 Y97.855 E48.71236
G1 X85.602 Y124.311 E51.43448
G1 X85.602 Y125.136 E51.49450
G1 X58.321 Y97.855 E54.30151
G1 X57.496 Y97.855 E54.36152
G1 X85.602 Y125.961 E57.25341
G1 X85.602 Y126.786 E57.31343
G1 X56.671 Y97.855 E60.29019
G1 X55.846 Y97.855 E60.35021
G1 X85.602 Y127.611 E63.41185
G1 X85.602 Y128.436 E63.47187
G1 X55.021 Y97.855 E66.61839
G1 X54.196 Y97.855 E66.67841
G1 X85.602 Y129.261 E69.90981
G1 X85.602 Y130.085 E69.96982
G1 X53.371 Y97.855 E73.28610
G1 X52.546 Y97.855 E73.34612
G1 X85.602 Y130.910 E76.74728
G1 X85.602 Y131.735 E76.80730
G1 X51.721 Y97.855 E80.29334
G1 X50.897 Y97.855 E80.35335
G1 X85.602 Y132.560 E83.92427
G1 X85.602 Y133.385 E83.98429
G1 X50.072 Y97.855 E87.64009
G1 X49.247 Y97.855 E87.70010
G1 X85.602 Y134.210 E91.44078
G1 X85.602 Y135.035 E91.50080
G1 X48.422 Y97.855 E95.32635
G1 X47.597 Y97.855 E95.38637
G1 X85.602 Y135.860 E99.29680
G1 X85.602 Y136.685 E99.35682
G1 X47.297 Y98.380 E103.29810
G1 X47.297 Y99.205 E103.35812
G1 X85.602 Y137.510 E107.29940
G1 X85.602 Y138.335 E107.35942
G1 X47.297 Y100.030 E111.30071
G1 X47.297 Y100.854 E111.36072
G1 X85.602 Y139.160 E115.30201
G1 X85.602 Y139.985 E115.36202
G1 X47.297 Y101.679 E119.30331
G1 X47.297 Y102.504 E119.36333
G1 X85.602 Y140.810 E123.30461
G1 X85.602 Y141.635 E123.36463
G1 X47.297 Y103.329 E127.30591
G1 X47.297 Y104.154 E127.36593
G1 X85.303 Y142.160 E131.27637
G1 X84.478 Y142.160 E131.33639
G1 X47.297 Y104.979 E135.16196
G1 X47.297 Y105.804 E135.22198
G1 X83.653 Y142.160 E138.96266
G1 X82.828 Y142.160 E139.02268
G1 X47.297 Y106.629 E142.67849
G1 X47.297 Y107.454 E142.73851
G1 X82.003 Y142.160 E146.30944
G1 X81.178 Y142.160 E146.36946
G1 X47.297 Y108.279 E149.85550
G1 X47.297 Y109.104 E149.91552
G1 X80.353 Y142.160 E153.31669
G1 X79.528 Y142.160 E153.37671
G1 X47.297 Y109.929 E156.69300
G1 X47.297 Y110.754 E156.75302
G1 X78.703 Y142.160 E159.98443
G1 X77.878 Y142.160 E160.04445
G1 X47.297 Y111.579 E163.19098
G1 X47.297 Y112.404 E163.25100
G1 X77.053 Y142.160 E166.31266
G1 X76.228 Y142.160 E166.37267
G1 X47.297 Y113.229 E169.34945
G1 X47.297 Y114.054 E169.40947
G1 X75.403 Y142.160 E172.30136
G1 X74.578 Y142.160 E172.36138
G1 X47.297 Y114.878 E175.16840
G1 X47.297 Y115.703 E175.22842
G1 X73.753 Y142.160 E177.95055
G1 X72.928 Y142.160 E178.01057
G1 X47.297 Y116.528 E180.64783
G1 X47.297 Y117.353 E180.70785
G1 X72.104 Y142.160 E183.26022
G1 X71.279 Y142.160 E183.32024
G1 X47.297 Y118.178 E185.78774
G1 X47.297 Y119.003 E185.84776
G1 X70.454 Y142.160 E188.23038
G1 X69.629 Y142.160 E188.29040
G1 X47.297 Y119.828 E190.58814
G1 X47.297 Y120.653 E190.64816
G1 X68.804 Y142.160 E192.86102
G1 X67.979 Y142.160 E192.92104
G1 X47.297 Y121.478 E195.04902
G1 X47.297 Y122.303 E195.10904
G1 X67.154 Y142.160 E197.15214
G1 X66.329 Y142.160 E197.21216
G1 X47.297 Y123.128 E199.17038
G1 X47.297 Y123.953 E199.23040
G1 X65.504 Y142.160 E201.10375
G1 X64.679 Y142.160 E201.16377
G1 X47.297 Y124.778 E202.95223
G1 X47.297 Y125.603 E203.01225
G1 X63.854 Y142.160 E204.71584
G1 X63.029 Y142.160 E204.77585
G1 X47.297 Y126.428 E206.39456
G1 X47.297 Y127.253 E206.45458
G1 X62.204 Y142.160 E207.98841
G1 X61.379 Y142.160 E208.04843
G1 X47.297 Y128.078 E209.49737
G1 X47.297 Y128.902 E209.55739
G1 X60.554 Y142.160 E210.92146
G1 X59.729 Y142.160 E210.98148
G1 X47.297 Y129.727 E212.26067
G1 X47.297 Y130.552 E212.32069
G1 X58.904 Y142.160 E213.51500
G1 X58.080 Y142.160 E213.57502
G1 X47.297 Y131.377 E214.68445
G1 X47.297 Y132.202 E214.74447
G1 X57.255 Y142.160 E215.76902
G1 X56.430 Y142.160 E215.82904
G1 X47.297 Y133.027 E216.76871
G1 X47.297 Y133.852 E216.82873
G1 X55.605 Y142.160 E217.68353
G1 X54.780 Y142.160 E217.74354
G1 X47.297 Y134.677 E218.51346
G1 X47.297 Y135.502 E218.57348
G1 X53.955 Y142.160 E219.25851
G1 X53.130 Y142.160 E219.31853
G1 X47.297 Y136.327 E219.91869
G1 X47.297 Y137.152 E219.97871
G1 X52.305 Y142.160 E220.49398
G1 X51.480 Y142.160 E220.55400
G1 X47.297 Y137.977 E220.98440
G1 X47.297 Y138.802 E221.04442
G1 X50.655 Y142.160 E221.38994
G1 X49.830 Y142.160 E221.44996
G1 X47.297 Y139.627 E221.71060
G1 X47.297 Y140.452 E221.77062
G1 X49.005 Y142.160 E221.94638
G1 X48.180 Y142.160 E222.00639
G1 X47.297 Y141.277 E222.09728
G1 X47.297 Y142.102 E222.15729
G1 X47.355 Y142.160 E222.16330
G1 X47.297 Y142.102 F4320.000 E222.13064
G1 X47.297 Y141.277 F4320.000 E221.80410
G1 X48.180 Y142.160 F4320.000 E221.30965
G1 X49.005 Y142.160 F4320.000 E220.98311
G1 X47.297 Y140.452 F4320.000 E220.02687
G1 X47.297 Y139.627 F4320.000 E219.70033
G1 X49.830 Y142.160 F4320.000 E218.28228
G1 X50.655 Y142.160 F4320.000 E217.95574
G1 X50.535 Y142.039 F4320.000 E217.88830
G1 F1800.000 E217.66330
G92 E0
G1 X94.456 Y141.787 F5400.000
G1 E4.50000 F1800.000
G1 X94.398 Y141.729 E4.50600 F1050.000
G1 X94.398 Y140.904 E4.56602
G1 X95.281 Y141.787 E4.65690
G1 X96.106 Y141.787 E4.71692
G1 X94.398 Y140.079 E4.89268
G1 X94.398 Y139.254 E4.95270
G1 X96.931 Y141.787 E5.21334
G1 X97.756 Y141.787 E5.27336
G1 X94.398 Y138.429 E5.61888
G1 X94.398 Y137.604 E5.67890
G1 X98.581 Y141.787 E6.10929
G1 X99.406 Y141.787 E6.16931
G1 X94.398 Y136.779 E6.68459
G1 X94.398 Y135.954 E6.74461
G1 X100.231 Y141.787 E7.34476
G1 X101.056 Y141.787 E7.40478
G1 X94.398 Y135.130 E8.08982
G1 X94.398 Y134.305 E8.14984
G1 X101.881 Y141.787 E8.91975
G1 X102.705 Y141.787 E8.97977
G1 X94.398 Y133.480 E9.83457
G1 X94.398 Y132.655 E9.89458
G1 X103.530 Y141.787 E10.83426
G1 X104.355 Y141.787 E10.89428
G1 X94.398 Y131.830 E11.91883
G1 X94.398 Y131.005 E11.97885
G1 X105.180 Y141.787 E13.08828
G1 X106.005 Y141.787 E13.14830
G1 X94.398 Y130.180 E14.34261
G1 X94.398 Y129.355 E14.40263
G1 X106.830 Y141.787 E15.68182
G1 X107.655 Y141.787 E15.74184
G1 X94.398 Y128.530 E17.10591
G1 X94.398 Y127.705 E17.16593
G1 X108.480 Y141.787 E18.61487
G1 X109.305 Y141.787 E18.67489
G1 X94.398 Y126.880 E20.20872
G1 X94.398 Y126.055 E20.26874
G1 X110.130 Y141.787 E21.88745
G1 X110.955 Y141.787 E21.94747
G1 X94.398 Y125.230 E23.65105
G1 X94.398 Y124.405 E23.71107
G1 X111.780 Y141.787 E25.49954
G1 X112.605 Y141.787 E25.55956
G1 X94.398 Y123.580 E27.43290
G1 X94.398 Y122.755 E27.49292
G1 X113.430 Y141.787 E29.45114
G1 X114.255 Y141.787 E29.51116
G1 X94.398 Y121.930 E31.55427
G1 X94.398 Y121.106 E31.61428
G1 X115.080 Y141.787 E33.74227
G1 X115.905 Y141.787 E33.80228
G1 X94.398 Y120.281 E36.01515
G1 X94.398 Y119.456 E36.07517
G1 X116.729 Y141.787 E38.37291
G1 X117.554 Y141.787 E38.43292
G1 X94.398 Y118.631 E40.81555
G1 X94.398 Y117.806 E40.87556
G1 X118.379 Y141.787 E43.34306
G1 X119.204 Y141.787 E43.40308
G1 X94.398 Y116.981 E45.95546
G1 X94.398 Y116.156 E46.01548
G1 X120.029 Y141.787 E48.65274
G1 X120.854 Y141.787 E48.71276
G1 X94.398 Y115.331 E51.43489
G1 X94.398 Y114.506 E51.49491
G1 X121.679 Y141.787 E54.30193
G1 X122.504 Y141.787 E54.36195
G1 X94.398 Y113.681 E57.25384
G1 X94.398 Y112.856 E57.31386
G1 X123.329 Y141.787 E60.29064
G1 X124.154 Y141.787 E60.35065
G1 X94.398 Y112.031 E63.41231
G1 X94.398 Y111.206 E63.47233
G1 X124.979 Y141.787 E66.61886
G1 X125.804 Y141.787 E66.67888
G1 X94.398 Y110.381 E69.91029
G1 X94.398 Y109.556 E69.97031
G1 X126.629 Y141.787 E73.28660
G1 X127.454 Y141.787 E73.34662
G1 X94.398 Y108.731 E76.74779
G1 X94.398 Y107.906 E76.80781
G1 X128.279 Y141.787 E80.29386
G1 X129.104 Y141.787 E80.35388
G1 X94.398 Y107.082 E83.92481
G1 X94.398 Y106.257 E83.98483
G1 X129.929 Y141.787 E87.64064
G1 X130.753 Y141.787 E87.70065
G1 X94.398 Y105.432 E91.44134
G1 X94.398 Y104.607 E91.50136
G1 X131.578 Y141.787 E95.32693
G1 X132.403 Y141.787 E95.38695
G1 X94.398 Y103.782 E99.29739
G1 X94.398 Y102.957 E99.35741
G1 X132.703 Y141.262 E103.29870
G1 X132.703 Y140.437 E103.35871
G1 X94.398 Y102.132 E107.30000
G1 X94.398 Y101.307 E107.36002
G1 X132.703 Y139.612 E111.30130
G1 X132.703 Y138.787 E111.36132
G1 X94.398 Y100.482 E115.30260
G1 X94.398 Y99.657 E115.36262
G1 X132.703 Y137.962 E119.30390
G1 X132.703 Y137.137 E119.36392
G1 X94.398 Y98.832 E123.30521
G1 X94.398 Y98.007 E123.36522
G1 X132.703 Y136.313 E127.30651
G1 X132.703 Y135.488 E127.36653
G1 X94.698 Y97.482 E131.27696
G1 X95.522 Y97.482 E131.33698
G1 X132.703 Y134.663 E135.16253
G1 X132.703 Y133.838 E135.22255
G1 X96.347 Y97.482 E138.96323
G1 X97.172 Y97.482 E139.02325
G1 X132.703 Y133.013 E142.67904
G1 X132.703 Y132.188 E142.73906
G1 X97.997 Y97.482 E146.30998
G1 X98.822 Y97.482 E146.37000
G1 X132.703 Y131.363 E149.85604
G1 X132.703 Y130.538 E149.91606
G1 X99.647 Y97.482 E153.31722
G1 X100.472 Y97.482 E153.37723
G1 X132.703 Y129.713 E156.69351
G1 X132.703 Y128.888 E156.75353
G1 X101.297 Y97.482 E159.98493
G1 X102.122 Y97.482 E160.04495
G1 X132.703 Y128.063 E163.19147
G1 X132.703 Y127.238 E163.25149
G1 X102.947 Y97.482 E166.31313
G1 X103.772 Y97.482 E166.37315
G1 X132.703 Y126.413 E169.34992
G1 X132.703 Y125.588 E169.40993
G1 X104.597 Y97.482 E172.30182
G1 X105.422 Y97.482 E172.36184
G1 X132.703 Y124.763 E175.16884
G1 X132.703 Y123.938 E175.22886
G1 X106.247 Y97.482 E177.95099
G1 X107.072 Y97.482 E178.01100
G1 X132.703 Y123.113 E180.64825
G1 X132.703 Y122.289 E180.70827
G1 X107.897 Y97.482 E183.26064
G1 X108.722 Y97.482 E183.32065
G1 X132.703 Y121.464 E185.78814
G1 X132.703 Y120.639 E185.84816
G1 X109.546 Y97.482 E188.23077
G1 X110.371 Y97.482 E188.29079
G1 X132.703 Y119.814 E190.58852
G1 X132.703 Y118.989 E190.64854
G1 X111.196 Y97.482 E192.86139
G1 X112.021 Y97.482 E192.92140
G1 X132.703 Y118.164 E195.04937
G1 X132.703 Y117.339 E195.10939
G1 X112.846 Y97.482 E197.15248
G1 X113.671 Y97.482 E197.21250
G1 X132.703 Y116.514 E199.17072
G1 X132.703 Y115.689 E199.23073
G1 X114.496 Y97.482 E201.10407
G1 X115.321 Y97.482 E201.16409
G1 X132.703 Y114.864 E202.95254
G1 X132.703 Y114.039 E203.01256
G1 X116.146 Y97.482 E204.71613
G1 X116.971 Y97.482 E204.77615
G1 X132.703 Y113.214 E206.39485
G1 X132.703 Y112.389 E206.45487
G1 X117.796 Y97.482 E207.98868
G1 X118.621 Y97.482 E208.04870
