; generated by Slic3r 1.0.0RC2 on 2014-11-23 at 08:28:10

; layer_height = 0.35
; perimeters = 3
; top_solid_layers = 3
; bottom_solid_layers = 3
; fill_density = 0.2
; perimeter_speed = 30
; infill_speed = 50
; travel_speed = 90
; nozzle_diameter = 0.5
; filament_diameter = 1.75
; extrusion_multiplier = 1
; perimeters extrusion width = 0.50mm
; infill extrusion width = 0.58mm
; solid infill extrusion width = 0.58mm
; top infill extrusion width = 0.58mm
; first layer extrusion width = 0.60mm

G21 ; set units to millimeters
M109 S200;set extruder temp and start heating
G28 X0 Y0 Z0;home X and Y and Z
G29 ;probe bed
G90; set absolute coordinates
G92 E0; reset extruder distance
G1 Z3 F3000; get out of the bed after probe
G1 X10 Y10 F3000 ; move to back right corner
G90 ; use absolute coordinates
G92 E0
M82 ; use absolute distances for extrusion
M106 S204
G1 F1800.000 E-4.50000
G92 E0
G1 Z0.300 F5400.000
G1 X10.225 Y17.402 F5400.000
G1 E4.50000 F1800.000
G1 X11.185 Y16.902 E4.57810 F630.000
G1 X91.765 Y-10.568 E10.72124
G1 X92.325 Y-10.708 E10.76289
G1 X92.915 Y-10.758 E10.80561
G1 X93.915 Y-10.758 E10.87777
G1 X94.475 Y-10.708 E10.91834
G1 X95.025 Y-10.578 E10.95912
G1 X146.515 Y6.182 E14.86645
G1 X146.775 Y6.272 E14.88630
G1 X155.965 Y10.082 E15.60417
G1 X156.775 Y10.552 E15.67174
G1 X157.435 Y11.212 E15.73909
G1 X157.905 Y12.022 E15.80667
G1 X161.715 Y21.212 E16.52454
G1 X161.865 Y21.662 E16.55877
G1 X161.955 Y22.132 E16.59330
G1 X165.685 Y51.632 E18.73893
G1 X168.305 Y80.262 E20.81346
G1 X168.305 Y140.262 E25.14298
G1 X168.265 Y140.812 E25.18277
G1 X168.135 Y141.342 E25.22215
G1 X167.325 Y143.902 E25.41590
G1 X167.155 Y144.342 E25.44994
G1 X165.035 Y148.852 E25.80954
G1 X164.265 Y149.922 E25.90466
G1 X163.165 Y150.642 E25.99953
G1 X156.095 Y153.572 E26.55177
G1 X155.465 Y153.762 E26.59925
G1 X154.805 Y153.842 E26.64722
G1 X134.495 Y154.282 E28.11311
G1 X67.195 Y154.752 E32.96950
G1 X15.165 Y154.752 E36.72392
G1 X14.115 Y154.592 E36.80056
G1 X13.155 Y154.132 E36.87738
G1 X12.375 Y153.412 E36.95397
G1 X11.845 Y152.502 E37.02996
G1 X11.595 Y151.472 E37.10644
G1 X7.705 Y104.682 E40.49440
G1 X7.695 Y104.382 E40.51606
G1 X7.695 Y54.272 E44.13193
G1 X8.755 Y20.182 E46.59300
G1 X8.955 Y19.122 E46.67084
G1 X9.455 Y18.162 E46.74895
G1 X10.163 Y17.463 E46.82075
G1 X11.185 Y16.902 F4320.000 E46.35936
G1 X20.304 Y13.793 F4320.000 E42.54575
G1 F1800.000 E42.32075
G92 E0
G1 X16.632 Y112.635 F5400.000
G1 E4.50000 F1800.000
G1 X30.201 Y112.635 E5.47914 F630.000
G1 X32.988 Y119.364 E6.00472
G1 X41.175 Y122.755 E6.64410
G1 X49.361 Y119.364 E7.28348
G1 X52.148 Y112.635 E7.80906
G1 X65.717 Y112.635 E8.78820
G1 X65.717 Y149.721 E11.46427
G1 X16.632 Y149.721 E15.00624
G1 X16.632 Y112.722 E17.67604
G1 X16.053 Y112.057 F5400.000
G1 X30.588 Y112.057 E18.72482 F630.000
G1 X33.431 Y118.922 E19.26100
G1 X41.175 Y122.129 E19.86580
G1 X48.918 Y118.922 E20.47060
G1 X51.762 Y112.057 E21.00677
G1 X66.296 Y112.057 E22.05556
G1 X66.296 Y150.300 E24.81512
G1 X16.053 Y150.300 E28.44058
G1 X16.053 Y112.144 E31.19388
G1 X15.475 Y111.478 F5400.000
G1 X30.974 Y111.478 E32.31230 F504.000
G1 X33.874 Y118.479 E32.85908
G1 X41.175 Y121.503 E33.42929
G1 X48.475 Y118.479 E33.99951
G1 X51.375 Y111.478 E34.54629
G1 X66.875 Y111.478 E35.66471
G1 X66.875 Y150.878 E38.50777
G1 X15.475 Y150.878 E42.21672
G1 X15.475 Y111.565 E45.05351
G1 X15.976 Y111.767 F5400.000
G1 X26.774 Y111.559 F4320.000 E40.77851
G1 F1800.000 E40.55351
G92 E0
G1 X35.796 Y86.867 F5400.000
G1 E4.50000 F1800.000
G1 X32.698 Y79.388 E5.08415 F630.000
G1 X35.796 Y71.908 E5.66831
G1 X43.275 Y68.810 E6.25246
G1 X50.754 Y71.908 E6.83661
G1 X53.852 Y79.388 E7.42076
G1 X50.754 Y86.867 E8.00491
G1 X43.275 Y89.965 E8.58906
G1 X35.876 Y86.900 E9.16696
G1 X36.238 Y86.424 F5400.000
G1 X33.324 Y79.388 E9.71652 F630.000
G1 X36.238 Y72.351 E10.26609
G1 X43.275 Y69.437 E10.81566
G1 X50.311 Y72.351 E11.36523
G1 X53.226 Y79.388 E11.91480
G1 X50.311 Y86.424 E12.46436
G1 X43.275 Y89.338 E13.01393
G1 X36.319 Y86.457 E13.55724
G1 X36.681 Y85.981 F5400.000
G1 X33.950 Y79.388 E14.07222 F504.000
G1 X36.681 Y72.794 E14.58721
G1 X43.275 Y70.063 E15.10219
G1 X49.868 Y72.794 E15.61718
G1 X52.600 Y79.388 E16.13216
G1 X49.868 Y85.981 E16.64714
G1 X43.275 Y88.712 E17.16213
G1 X36.761 Y86.014 E17.67085
G1 X36.108 Y86.057 F5400.000
G1 X53.137 Y102.930 F5400.000
G1 X12.732 Y102.930 E20.58645 F630.000
G1 X12.732 Y55.845 E23.98410
G1 X73.818 Y55.845 E28.39198
G1 X73.818 Y102.930 E31.78963
G1 X53.224 Y102.930 E33.27564
G1 X53.137 Y103.509 F5400.000
G1 X12.153 Y103.509 E36.23299 F630.000
G1 X12.153 Y55.266 E39.71413
G1 X74.396 Y55.266 E44.20550
G1 X74.396 Y103.509 E47.68664
G1 X53.224 Y103.509 E49.21440
G1 X53.137 Y104.088 F5400.000
G1 X11.575 Y104.088 E52.21349 F504.000
G1 X11.575 Y54.688 E55.77813
G1 X74.975 Y54.688 E60.35299
G1 X74.975 Y104.088 E63.91763
G1 X53.224 Y104.088 E65.48713
G1 X52.848 Y103.587 F5400.000
G1 X42.049 Y103.718 F4320.000 E61.21213
G1 F1800.000 E60.98713
G92 E0
G1 X87.436 Y73.396 F5400.000
G1 E4.50000 F1800.000
G1 X85.773 Y69.382 E4.81354 F630.000
G1 X87.436 Y65.368 E5.12707
G1 X91.450 Y63.705 E5.44061
G1 X95.465 Y65.368 E5.75414
G1 X97.127 Y69.382 E6.06768
G1 X95.465 Y73.396 E6.38122
G1 X91.450 Y75.059 E6.69475
G1 X87.516 Y73.430 E7.00203
G1 X87.879 Y72.954 F5400.000
G1 X86.399 Y69.382 E7.28098 F630.000
G1 X87.879 Y65.810 E7.55993
G1 X91.450 Y64.331 E7.83888
G1 X95.022 Y65.810 E8.11783
G1 X96.501 Y69.382 E8.39679
G1 X95.022 Y72.954 E8.67574
G1 X91.450 Y74.433 E8.95469
G1 X87.959 Y72.987 E9.22738
G1 X88.321 Y72.511 F5400.000
G1 X87.025 Y69.382 E9.47175 F630.000
G1 X88.321 Y66.253 E9.71611
G1 X91.450 Y64.957 E9.96048
G1 X94.579 Y66.253 E10.20485
G1 X95.875 Y69.382 E10.44922
G1 X94.579 Y72.511 E10.69359
G1 X91.450 Y73.807 E10.93795
G1 X88.402 Y72.544 E11.17606
G1 X87.748 Y72.586 F5400.000
G1 X83.033 Y76.638 F5400.000
G1 X80.027 Y69.382 E11.74278 F630.000
G1 X83.373 Y61.305 E12.37364
G1 X91.450 Y57.959 E13.00450
G1 X99.527 Y61.305 E13.63536
G1 X102.873 Y69.382 E14.26622
G1 X99.527 Y77.459 E14.89708
G1 X91.450 Y80.805 E15.52794
G1 X83.373 Y77.459 E16.15880
G1 X83.066 Y76.718 E16.21668
G1 X82.498 Y76.859 F5400.000
G1 X79.401 Y69.382 E16.80069 F630.000
G1 X82.930 Y60.862 E17.46613
G1 X91.450 Y57.333 E18.13158
G1 X99.970 Y60.862 E18.79702
G1 X103.499 Y69.382 E19.46247
G1 X99.970 Y77.902 E20.12791
G1 X91.450 Y81.431 E20.79336
G1 X82.930 Y77.902 E21.45880
G1 X82.532 Y76.939 E21.53398
G1 X81.964 Y77.081 F5400.000
G1 X78.775 Y69.382 E22.13528 F504.000
G1 X82.487 Y60.419 E22.83531
G1 X91.450 Y56.707 E23.53533
G1 X100.413 Y60.419 E24.23536
G1 X104.125 Y69.382 E24.93539
G1 X100.413 Y78.345 E25.63542
G1 X91.450 Y82.057 E26.33545
G1 X82.487 Y78.345 E27.03548
G1 X81.997 Y77.161 E27.12794
G1 X82.316 Y76.622 F5400.000
G1 X78.775 Y69.382 F4320.000 E23.93778
G1 X79.824 Y66.850 F4320.000 E22.85294
G1 F1800.000 E22.62794
G92 E0
G1 X112.216 Y53.522 F5400.000
G1 E4.50000 F1800.000
G1 X112.216 Y52.122 E4.60102 F630.000
G1 X113.616 Y52.122 E4.70204
G1 X113.616 Y53.522 E4.80307
G1 X112.303 Y53.522 E4.89783
G1 X112.506 Y53.021 F5400.000
G1 X112.216 Y52.122 F4320.000 E4.52402
G1 X113.616 Y52.122 F4320.000 E3.96985
G1 X113.616 Y53.522 F4320.000 E3.41568
G1 X112.303 Y53.522 F4320.000 E2.89587
G1 F1800.000 E0.39783
G92 E0
G1 X120.921 Y60.203 F5400.000
G1 E4.50000 F1800.000
G1 X124.422 Y58.753 E4.77343 F630.000
G1 X127.923 Y60.203 E5.04686
G1 X129.373 Y63.704 E5.32029
G1 X127.923 Y67.205 E5.59371
G1 X124.422 Y68.655 E5.86714
G1 X120.921 Y67.205 E6.14057
G1 X119.471 Y63.704 E6.41400
G1 X120.888 Y60.283 E6.68117
G1 X121.364 Y60.646 F5400.000
G1 X124.422 Y59.379 E6.92001 F630.000
G1 X127.480 Y60.646 E7.15886
G1 X128.747 Y63.704 E7.39770
G1 X127.480 Y66.762 E7.63655
G1 X124.422 Y68.029 E7.87539
G1 X121.364 Y66.762 E8.11424
G1 X120.097 Y63.704 E8.35308
G1 X121.331 Y60.726 E8.58567
G1 X121.288 Y60.072 F5400.000
G1 X124.422 Y59.379 F4320.000 E7.31533
G1 X127.480 Y60.646 F4320.000 E6.00512
G1 X128.747 Y63.704 F4320.000 E4.69492
G1 X128.375 Y64.601 F4320.000 E4.31067
G1 F1800.000 E4.08567
G92 E0
G1 X124.422 Y138.753 F5400.000
G1 E4.50000 F1800.000
G1 X127.923 Y140.203 E4.77343 F630.000
G1 X129.373 Y143.704 E5.04686
G1 X127.923 Y147.205 E5.32029
G1 X124.422 Y148.655 E5.59372
G1 X120.921 Y147.205 E5.86714
G1 X119.471 Y143.704 E6.14057
G1 X120.921 Y140.203 E6.41401
G1 X124.342 Y138.786 E6.68117
G1 X124.422 Y139.379 F5400.000
G1 X127.480 Y140.646 E6.92002 F630.000
G1 X128.747 Y143.704 E7.15886
G1 X127.480 Y146.762 E7.39771
G1 X124.422 Y148.029 E7.63655
G1 X121.364 Y146.762 E7.87540
G1 X120.097 Y143.704 E8.11424
G1 X121.364 Y140.646 E8.35309
G1 X124.342 Y139.412 E8.58567
G1 X124.774 Y138.920 F5400.000
G1 X124.422 Y138.127 F5400.000
G1 X120.478 Y139.760 E8.89368 F630.000
G1 X118.845 Y143.704 E9.20170
G1 X120.478 Y147.648 E9.50971
G1 X123.654 Y148.963 E9.75772
G1 X123.597 Y149.247 E9.77862
G1 X115.879 Y149.247 E10.33556
G1 X115.879 Y125.747 E12.03128
G1 X105.879 Y125.747 E12.75287
G1 X105.879 Y81.661 E15.93405
G1 X115.879 Y81.661 E16.65563
G1 X115.879 Y58.161 E18.35136
G1 X123.597 Y58.161 E18.90830
G1 X123.654 Y58.445 E18.92919
G1 X120.478 Y59.760 E19.17721
G1 X118.845 Y63.704 E19.48522
G1 X120.478 Y67.648 E19.79324
G1 X124.422 Y69.281 E20.10125
G1 X128.365 Y67.648 E20.40926
G1 X129.999 Y63.704 E20.71728
G1 X128.365 Y59.760 E21.02529
G1 X125.190 Y58.445 E21.27330
G1 X125.246 Y58.161 E21.29420
G1 X132.965 Y58.161 E21.85113
G1 X132.965 Y78.747 E23.33658
G1 X122.965 Y78.747 E24.05817
G1 X122.965 Y128.661 E27.65991
G1 X132.965 Y128.661 E28.38149
G1 X132.965 Y149.247 E29.86694
G1 X125.246 Y149.247 E30.42388
G1 X125.190 Y148.963 E30.44477
G1 X128.365 Y147.648 E30.69279
G1 X129.999 Y143.704 E31.00080
G1 X128.365 Y139.760 E31.30882
G1 X124.502 Y138.160 E31.61057
G1 X123.543 Y128.082 F5400.000
G1 X133.543 Y128.082 E32.33215 F630.000
G1 X133.543 Y149.825 E33.90109
G1 X115.300 Y149.825 E35.21748
G1 X115.300 Y126.325 E36.91321
G1 X105.300 Y126.325 E37.63479
G1 X105.300 Y81.082 E40.89946
G1 X115.300 Y81.082 E41.62105
G1 X115.300 Y57.582 E43.31678
G1 X133.543 Y57.582 E44.63316
G1 X133.543 Y79.325 E46.20210
G1 X123.543 Y79.325 E46.92369
G1 X123.543 Y127.996 E50.43567
G1 X124.122 Y127.504 F5400.000
G1 X134.122 Y127.504 E51.15726 F504.000
G1 X134.122 Y150.404 E52.80969
G1 X114.722 Y150.404 E54.20957
G1 X114.722 Y126.904 E55.90530
G1 X104.722 Y126.904 E56.62689
G1 X104.722 Y80.504 E59.97505
G1 X114.722 Y80.504 E60.69664
G1 X114.722 Y57.004 E62.39236
G1 X134.122 Y57.004 E63.79224
G1 X134.122 Y79.904 E65.44468
G1 X124.122 Y79.904 E66.16626
G1 X124.122 Y127.417 E69.59475
G1 X124.122 Y128.082 F5400.000
G1 X134.122 Y127.504 F4320.000 E65.62980
G1 X134.122 Y128.287 F4320.000 E65.31975
G1 F1800.000 E65.09475
G92 E0
G1 X149.144 Y57.764 F5400.000
G1 E4.50000 F1800.000
G1 X145.130 Y56.101 E4.81354 F630.000
G1 X143.467 Y52.087 E5.12707
G1 X145.130 Y48.072 E5.44061
G1 X149.144 Y46.410 E5.75415
G1 X153.158 Y48.072 E6.06768
G1 X154.821 Y52.087 E6.38122
G1 X153.158 Y56.101 E6.69475
G1 X149.224 Y57.731 E7.00203
G1 X149.144 Y57.138 F5400.000
G1 X145.572 Y55.658 E7.28098 F630.000
G1 X144.093 Y52.087 E7.55993
G1 X145.572 Y48.515 E7.83888
G1 X149.144 Y47.036 E8.11784
G1 X152.715 Y48.515 E8.39679
G1 X154.195 Y52.087 E8.67574
G1 X152.715 Y55.658 E8.95469
G1 X149.224 Y57.104 E9.22738
G1 X149.144 Y56.511 F5400.000
G1 X146.015 Y55.216 E9.47175 F630.000
G1 X144.719 Y52.087 E9.71612
G1 X146.015 Y48.958 E9.96048
G1 X149.144 Y47.662 E10.20485
G1 X152.273 Y48.958 E10.44922
G1 X153.569 Y52.087 E10.69359
G1 X152.273 Y55.216 E10.93796
G1 X149.224 Y56.478 E11.17606
G1 X148.792 Y56.970 F5400.000
G1 X145.858 Y62.149 F5400.000
G1 X141.067 Y60.164 E11.55031 F630.000
G1 X137.721 Y52.087 E12.18117
G1 X141.067 Y44.010 E12.81203
G1 X149.144 Y40.664 E13.44289
G1 X157.221 Y44.010 E14.07375
G1 X160.567 Y52.087 E14.70461
G1 X157.221 Y60.164 E15.33547
G1 X149.144 Y63.510 E15.96633
G1 X145.939 Y62.182 E16.21668
G1 X145.637 Y62.683 F5400.000
G1 X140.624 Y60.607 E16.60822 F630.000
G1 X137.095 Y52.087 E17.27367
G1 X140.624 Y43.567 E17.93911
G1 X149.144 Y40.038 E18.60456
G1 X157.664 Y43.567 E19.27000
G1 X161.193 Y52.087 E19.93545
G1 X157.664 Y60.607 E20.60089
G1 X149.144 Y64.136 E21.26633
G1 X145.717 Y62.716 E21.53398
G1 X145.416 Y63.218 F5400.000
G1 X140.181 Y61.050 E21.94281 F504.000
G1 X136.469 Y52.087 E22.64284
G1 X140.181 Y43.124 E23.34287
G1 X149.144 Y39.411 E24.04290
G1 X158.107 Y43.124 E24.74292
G1 X161.819 Y52.087 E25.44295
G1 X158.107 Y61.050 E26.14298
G1 X149.144 Y64.762 E26.84301
G1 X145.496 Y63.251 E27.12794
G1 X145.340 Y62.644 F5400.000
G1 X140.181 Y61.050 F4320.000 E24.99054
G1 X138.115 Y56.060 F4320.000 E22.85294
G1 F1800.000 E22.62794
G92 E0
G1 X145.407 Y28.265 F5400.000
G1 E4.50000 F1800.000
G1 X141.392 Y26.602 E4.81354 F630.000
G1 X139.730 Y22.588 E5.12707
G1 X141.392 Y18.574 E5.44061
G1 X145.407 Y16.911 E5.75414
G1 X149.421 Y18.574 E6.06768
G1 X151.084 Y22.588 E6.38122
G1 X149.421 Y26.602 E6.69475
G1 X145.487 Y28.232 E7.00203
G1 X145.407 Y27.639 F5400.000
G1 X141.835 Y26.160 E7.28098 F630.000
G1 X140.356 Y22.588 E7.55993
G1 X141.835 Y19.016 E7.83888
G1 X145.407 Y17.537 E8.11783
G1 X148.978 Y19.016 E8.39679
G1 X150.458 Y22.588 E8.67574
G1 X148.978 Y26.160 E8.95469
G1 X145.487 Y27.606 E9.22738
G1 X145.407 Y27.013 F5400.000
G1 X142.278 Y25.717 E9.47175 F630.000
G1 X140.982 Y22.588 E9.71611
G1 X142.278 Y19.459 E9.96048
G1 X145.407 Y18.163 E10.20485
G1 X148.535 Y19.459 E10.44922
G1 X149.831 Y22.588 E10.69359
G1 X148.535 Y25.717 E10.93795
G1 X145.487 Y26.980 E11.17606
G1 X145.055 Y27.472 F5400.000
G1 X142.121 Y32.650 F5400.000
G1 X137.330 Y30.665 E11.55031 F630.000
G1 X133.984 Y22.588 E12.18117
G1 X137.330 Y14.511 E12.81203
G1 X145.407 Y11.165 E13.44289
G1 X153.484 Y14.511 E14.07375
G1 X156.830 Y22.588 E14.70461
G1 X153.484 Y30.665 E15.33547
G1 X145.407 Y34.011 E15.96633
G1 X142.201 Y32.683 E16.21668
G1 X141.900 Y33.184 F5400.000
G1 X136.887 Y31.108 E16.60822 F630.000
G1 X133.358 Y22.588 E17.27367
G1 X136.887 Y14.068 E17.93911
G1 X145.407 Y10.539 E18.60455
G1 X153.927 Y14.068 E19.27000
G1 X157.456 Y22.588 E19.93544
G1 X153.927 Y31.108 E20.60089
G1 X145.407 Y34.637 E21.26633
G1 X141.980 Y33.218 E21.53397
G1 X141.678 Y33.719 F5400.000
G1 X136.444 Y31.551 E21.94281 F504.000
G1 X132.731 Y22.588 E22.64283
G1 X136.444 Y13.625 E23.34286
G1 X145.407 Y9.913 E24.04289
G1 X154.369 Y13.625 E24.74292
G1 X158.082 Y22.588 E25.44295
G1 X154.369 Y31.551 E26.14298
G1 X145.407 Y35.263 E26.84301
G1 X141.759 Y33.752 E27.12794
G1 X141.603 Y33.145 F5400.000
G1 X136.444 Y31.551 F4320.000 E24.99054
G1 X134.377 Y26.562 F4320.000 E22.85294
G1 F1800.000 E22.62794
G92 E0
G1 X127.209 Y39.301 F5400.000
G1 E4.50000 F1800.000
G1 X125.546 Y43.315 E4.81354 F630.000
G1 X121.531 Y44.978 E5.12707
G1 X117.517 Y43.315 E5.44061
G1 X115.854 Y39.301 E5.75414
G1 X117.517 Y35.286 E6.06768
G1 X121.531 Y33.624 E6.38122
G1 X125.546 Y35.286 E6.69475
G1 X127.175 Y39.221 E7.00202
G1 X126.582 Y39.301 F5400.000
G1 X125.103 Y42.872 E7.28098 F630.000
G1 X121.531 Y44.352 E7.55993
G1 X117.960 Y42.872 E7.83888
G1 X116.480 Y39.301 E8.11783
G1 X117.960 Y35.729 E8.39678
G1 X121.531 Y34.250 E8.67574
G1 X125.103 Y35.729 E8.95469
G1 X126.549 Y39.221 E9.22738
G1 X125.956 Y39.301 F5400.000
G1 X124.660 Y42.430 E9.47175 F630.000
G1 X121.531 Y43.725 E9.71611
G1 X118.403 Y42.430 E9.96048
G1 X117.107 Y39.301 E10.20485
G1 X118.403 Y36.172 E10.44922
G1 X121.531 Y34.876 E10.69358
G1 X124.660 Y36.172 E10.93795
G1 X125.923 Y39.221 E11.17606
G1 X126.415 Y39.653 F5400.000
G1 X132.614 Y40.122 F5400.000
G1 X129.609 Y47.378 E11.74277 F630.000
G1 X121.531 Y50.724 E12.37364
G1 X113.454 Y47.378 E13.00450
G1 X110.109 Y39.301 E13.63536
G1 X113.454 Y31.224 E14.26622
G1 X121.531 Y27.878 E14.89708
G1 X129.609 Y31.224 E15.52794
G1 X132.954 Y39.301 E16.15880
G1 X132.647 Y40.042 E16.21668
G1 X133.149 Y40.343 F5400.000
G1 X130.051 Y47.821 E16.80069 F630.000
G1 X121.531 Y51.350 E17.46613
G1 X113.011 Y47.821 E18.13158
G1 X109.482 Y39.301 E18.79702
G1 X113.011 Y30.781 E19.46247
G1 X121.531 Y27.252 E20.12791
G1 X130.051 Y30.781 E20.79336
G1 X133.580 Y39.301 E21.45880
