; generated by Slic3r 1.0.0RC2 on 2014-11-18 at 13:02:09

; layer_height = 0.30
; perimeters = 3
; top_solid_layers = 3
; bottom_solid_layers = 3
; fill_density = 0.3
; perimeter_speed = 30
; infill_speed = 50
; travel_speed = 90
; nozzle_diameter = 0.5
; filament_diameter = 1.75
; extrusion_multiplier = 1
; perimeters extrusion width = 0.50mm
; infill extrusion width = 0.70mm
; solid infill extrusion width = 0.70mm
; top infill extrusion width = 0.70mm
; first layer extrusion width = 0.60mm

G21 ; set units to millimeters
M109 S200;set extruder temp and start heating
G28 X0 Y0 Z0;home X and Y and Z
G29 ;probe bed
G90; set absolute coordinates
G92 E0; reset extruder distance
G1 Z3 F3000; get out of the bed after probe
G1 X10 Y10 F3000 ; move to back right corner
G90 ; use absolute coordinates
G92 E0
M82 ; use absolute distances for extrusion
M106 S204
G1 F1800.000 E-4.50000
G92 E0
G1 Z0.300 F5400.000
G1 X37.500 Y65.080 F5400.000
G1 E4.50000 F1800.000
G1 X39.370 Y64.090 E4.65268 F630.000
G1 X39.610 Y64.000 E4.67118
G1 X41.390 Y63.460 E4.80540
G1 X41.890 Y63.360 E4.84219
G1 X44.000 Y63.170 E4.99506
G1 X123.990 Y63.170 E10.76704
G1 X126.100 Y63.360 E10.91991
G1 X126.600 Y63.460 E10.95670
G1 X128.380 Y64.000 E11.09092
G1 X128.620 Y64.090 E11.10942
G1 X130.490 Y65.080 E11.26210
G1 X130.900 Y65.360 E11.29792
G1 X132.530 Y66.710 E11.45065
G1 X133.880 Y68.340 E11.60337
G1 X134.160 Y68.750 E11.63919
G1 X135.150 Y70.620 E11.79187
G1 X135.240 Y70.860 E11.81037
G1 X135.780 Y72.640 E11.94459
G1 X135.880 Y73.130 E11.98068
G1 X136.070 Y74.990 E12.11559
G1 X136.080 Y75.250 E12.13437
G1 X136.070 Y75.510 E12.15314
G1 X131.570 Y120.510 E15.41648
G1 X131.300 Y121.410 E15.48428
G1 X130.730 Y122.160 E15.55225
G1 X129.930 Y122.660 E15.62033
G1 X129.000 Y122.830 E15.68855
G1 X39.000 Y122.830 E22.18283
G1 X38.070 Y122.660 E22.25105
G1 X37.270 Y122.160 E22.31912
G1 X36.700 Y121.410 E22.38710
G1 X36.430 Y120.510 E22.45490
G1 X32.110 Y77.360 E25.58411
G1 X31.920 Y75.250 E25.73698
G1 X32.110 Y73.140 E25.88985
G1 X32.210 Y72.640 E25.92665
G1 X32.750 Y70.860 E26.06087
G1 X32.840 Y70.620 E26.07937
G1 X32.940 Y70.400 E26.09680
G1 X33.820 Y68.750 E26.23174
G1 X34.110 Y68.320 E26.26917
G1 X35.460 Y66.700 E26.42133
G1 X37.090 Y65.360 E26.57359
G1 X37.426 Y65.126 E26.60316
G1 X39.370 Y64.090 F4320.000 E25.73135
G1 X39.610 Y64.000 F4320.000 E25.62989
G1 X41.390 Y63.460 F4320.000 E24.89359
G1 X41.890 Y63.360 F4320.000 E24.69176
G1 X44.000 Y63.170 F4320.000 E23.85317
G1 X47.853 Y63.170 F4320.000 E22.32816
G1 F1800.000 E22.10316
G92 E0
G1 X116.348 Y73.728 F5400.000
G1 E4.50000 F1800.000
G1 X116.792 Y72.265 E4.61036 F504.000
G1 X117.513 Y70.916 E4.72071
G1 X118.484 Y69.734 E4.83107
G1 X119.666 Y68.763 E4.94142
G1 X121.015 Y68.042 E5.05178
G1 X122.478 Y67.598 E5.16214
G1 X124.000 Y67.449 E5.27249
G1 X125.522 Y67.598 E5.38285
G1 X126.985 Y68.042 E5.49320
G1 X128.334 Y68.763 E5.60356
G1 X129.516 Y69.734 E5.71392
G1 X130.487 Y70.916 E5.82427
G1 X131.208 Y72.265 E5.93463
G1 X131.652 Y73.728 E6.04499
G1 X131.801 Y75.250 E6.15534
G1 X131.652 Y76.772 E6.26570
G1 X131.208 Y78.235 E6.37605
G1 X130.487 Y79.584 E6.48641
G1 X129.516 Y80.766 E6.59677
G1 X128.334 Y81.737 E6.70712
G1 X126.986 Y82.458 E6.81748
G1 X125.522 Y82.902 E6.92783
G1 X124.000 Y83.051 E7.03819
G1 X122.478 Y82.902 E7.14855
G1 X121.015 Y82.458 E7.25890
G1 X119.666 Y81.737 E7.36926
G1 X118.484 Y80.766 E7.47961
G1 X117.513 Y79.584 E7.58997
G1 X116.792 Y78.235 E7.70032
G1 X116.348 Y76.772 E7.81068
G1 X116.199 Y75.250 E7.92104
G1 X116.340 Y73.814 E8.02513
G1 X115.926 Y73.333 F5400.000
G1 X51.801 Y75.250 F5400.000
G1 X51.652 Y76.772 E8.13549 F504.000
G1 X51.208 Y78.235 E8.24584
G1 X50.487 Y79.584 E8.35620
G1 X49.516 Y80.766 E8.46655
G1 X48.334 Y81.737 E8.57691
G1 X46.985 Y82.458 E8.68727
G1 X45.522 Y82.902 E8.79762
G1 X44.000 Y83.051 E8.90798
G1 X42.478 Y82.902 E9.01833
G1 X41.015 Y82.458 E9.12869
G1 X39.666 Y81.737 E9.23905
G1 X38.484 Y80.766 E9.34940
G1 X37.513 Y79.584 E9.45976
G1 X36.792 Y78.235 E9.57011
G1 X36.348 Y76.772 E9.68047
G1 X36.199 Y75.250 E9.79083
G1 X36.348 Y73.728 E9.90118
G1 X36.792 Y72.265 E10.01154
G1 X37.513 Y70.916 E10.12189
G1 X38.484 Y69.734 E10.23225
G1 X39.666 Y68.763 E10.34261
G1 X41.015 Y68.042 E10.45296
G1 X42.478 Y67.598 E10.56332
G1 X44.000 Y67.449 E10.67367
G1 X45.522 Y67.598 E10.78403
G1 X46.985 Y68.042 E10.89439
G1 X48.334 Y68.763 E11.00474
G1 X49.516 Y69.734 E11.11510
G1 X50.487 Y70.916 E11.22546
G1 X51.208 Y72.265 E11.33581
G1 X51.652 Y73.728 E11.44617
G1 X51.793 Y75.164 E11.55026
G1 X52.293 Y75.556 F5400.000
G1 X51.652 Y76.772 F4320.000 E11.00594
G1 X51.208 Y78.235 F4320.000 E10.40058
G1 X50.487 Y79.584 F4320.000 E9.79521
G1 X49.516 Y80.766 F4320.000 E9.18984
G1 X48.334 Y81.737 F4320.000 E8.58447
G1 X46.985 Y82.458 F4320.000 E7.97910
G1 X45.522 Y82.902 F4320.000 E7.37373
G1 X45.274 Y82.926 F4320.000 E7.27526
G1 F1800.000 E7.05026
G92 E0
G1 X45.268 Y85.352 F5400.000
G1 E4.50000 F1800.000
G1 X45.614 Y85.636 E4.53229 F630.000
G1 X45.898 Y85.982 E4.56458
G1 X46.109 Y86.376 E4.59687
G1 X46.239 Y86.805 E4.62916
G1 X46.283 Y87.250 E4.66145
G1 X46.239 Y87.695 E4.69375
G1 X46.109 Y88.124 E4.72603
G1 X45.898 Y88.518 E4.75833
G1 X45.614 Y88.864 E4.79062
G1 X45.268 Y89.148 E4.82291
G1 X44.874 Y89.359 E4.85520
G1 X44.445 Y89.489 E4.88749
G1 X44.000 Y89.533 E4.91978
G1 X43.555 Y89.489 E4.95207
G1 X43.126 Y89.359 E4.98437
G1 X42.732 Y89.148 E5.01666
G1 X42.386 Y88.864 E5.04895
G1 X42.102 Y88.518 E5.08124
G1 X41.891 Y88.124 E5.11353
G1 X41.761 Y87.695 E5.14583
G1 X41.717 Y87.250 E5.17812
G1 X41.761 Y86.805 E5.21041
G1 X41.891 Y86.377 E5.24268
G1 X42.102 Y85.982 E5.27499
G1 X42.386 Y85.636 E5.30729
G1 X42.721 Y85.361 E5.33860
G1 X43.126 Y85.141 E5.37185
G1 X43.555 Y85.011 E5.40414
G1 X44.000 Y84.967 E5.43644
G1 X44.445 Y85.011 E5.46873
G1 X44.874 Y85.141 E5.50102
G1 X45.192 Y85.311 E5.52704
G1 X44.914 Y85.819 F5400.000
G1 X45.203 Y86.047 E5.55360 F630.000
G1 X45.415 Y86.305 E5.57766
G1 X45.572 Y86.599 E5.60173
G1 X45.669 Y86.918 E5.62580
G1 X45.701 Y87.250 E5.64987
G1 X45.669 Y87.582 E5.67394
G1 X45.572 Y87.901 E5.69800
G1 X45.415 Y88.195 E5.72207
G1 X45.203 Y88.453 E5.74614
G1 X44.945 Y88.665 E5.77021
G1 X44.651 Y88.822 E5.79428
G1 X44.332 Y88.919 E5.81834
G1 X44.000 Y88.951 E5.84241
G1 X43.668 Y88.919 E5.86648
G1 X43.349 Y88.822 E5.89055
G1 X43.055 Y88.665 E5.91462
G1 X42.797 Y88.453 E5.93868
G1 X42.585 Y88.195 E5.96275
G1 X42.428 Y87.901 E5.98682
G1 X42.331 Y87.582 E6.01089
G1 X42.299 Y87.250 E6.03496
G1 X42.331 Y86.918 E6.05903
G1 X42.428 Y86.599 E6.08307
G1 X42.585 Y86.305 E6.10716
G1 X42.797 Y86.047 E6.13123
G1 X43.046 Y85.843 E6.15447
G1 X43.349 Y85.678 E6.17935
G1 X43.668 Y85.581 E6.20342
G1 X44.000 Y85.549 E6.22749
G1 X44.332 Y85.581 E6.25155
G1 X44.651 Y85.678 E6.27562
G1 X44.838 Y85.778 E6.29090
G1 X45.248 Y85.663 F5400.000
G1 X45.203 Y86.047 F4320.000 E6.13783
G1 X45.415 Y86.305 F4320.000 E6.00580
G1 X45.572 Y86.599 F4320.000 E5.87377
G1 X45.669 Y86.918 F4320.000 E5.74176
G1 X45.701 Y87.250 F4320.000 E5.60973
G1 X45.669 Y87.582 F4320.000 E5.47769
G1 X45.572 Y87.901 F4320.000 E5.34568
G1 X45.415 Y88.195 F4320.000 E5.21364
G1 X45.203 Y88.453 F4320.000 E5.08162
G1 X44.945 Y88.665 F4320.000 E4.94958
G1 X44.651 Y88.822 F4320.000 E4.81756
G1 X44.332 Y88.919 F4320.000 E4.68554
G1 X44.000 Y88.951 F4320.000 E4.55350
G1 X43.668 Y88.919 F4320.000 E4.42148
G1 X43.349 Y88.822 F4320.000 E4.28945
G1 X43.055 Y88.665 F4320.000 E4.15742
G1 X42.797 Y88.453 F4320.000 E4.02539
G1 X42.585 Y88.195 F4320.000 E3.89337
G1 X42.428 Y87.901 F4320.000 E3.76134
G1 X42.331 Y87.582 F4320.000 E3.62931
G1 X42.299 Y87.250 F4320.000 E3.49729
G1 X42.331 Y86.918 F4320.000 E3.36524
G1 X42.428 Y86.599 F4320.000 E3.23333
G1 X42.585 Y86.305 F4320.000 E3.10120
G1 X42.797 Y86.047 F4320.000 E2.96917
G1 X43.046 Y85.843 F4320.000 E2.84167
G1 X43.349 Y85.678 F4320.000 E2.70520
G1 X43.668 Y85.581 F4320.000 E2.57317
G1 X44.000 Y85.549 F4320.000 E2.44114
G1 X44.332 Y85.581 F4320.000 E2.30911
G1 X44.651 Y85.678 F4320.000 E2.17708
G1 X44.838 Y85.778 F4320.000 E2.09329
G1 F1800.000 E1.79090
G92 E0
G1 X121.717 Y87.250 F5400.000
G1 E4.50000 F1800.000
G1 X121.761 Y86.805 E4.53230 F630.000
G1 X121.891 Y86.377 E4.56456
G1 X122.102 Y85.982 E4.59687
G1 X122.386 Y85.636 E4.62917
G1 X122.721 Y85.361 E4.66048
G1 X123.126 Y85.141 E4.69373
G1 X123.555 Y85.011 E4.72602
G1 X124.000 Y84.967 E4.75831
G1 X124.445 Y85.011 E4.79060
G1 X124.874 Y85.141 E4.82290
G1 X125.268 Y85.352 E4.85519
G1 X125.614 Y85.636 E4.88747
G1 X125.898 Y85.982 E4.91977
G1 X126.109 Y86.376 E4.95206
G1 X126.239 Y86.805 E4.98435
G1 X126.283 Y87.250 E5.01664
G1 X126.239 Y87.695 E5.04893
G1 X126.109 Y88.124 E5.08122
G1 X125.898 Y88.518 E5.11351
G1 X125.614 Y88.864 E5.14580
G1 X125.268 Y89.148 E5.17810
G1 X124.874 Y89.359 E5.21039
G1 X124.445 Y89.489 E5.24268
G1 X124.000 Y89.533 E5.27497
G1 X123.555 Y89.489 E5.30726
G1 X123.126 Y89.359 E5.33955
G1 X122.732 Y89.148 E5.37185
G1 X122.386 Y88.864 E5.40414
G1 X122.102 Y88.518 E5.43643
G1 X121.891 Y88.124 E5.46872
G1 X121.761 Y87.695 E5.50102
G1 X121.726 Y87.336 E5.52704
G1 X122.302 Y87.285 F5400.000
G1 X122.331 Y86.918 E5.55361 F630.000
G1 X122.428 Y86.599 E5.57766
G1 X122.585 Y86.305 E5.60175
G1 X122.797 Y86.047 E5.62582
G1 X123.046 Y85.843 E5.64906
G1 X123.349 Y85.678 E5.67394
G1 X123.668 Y85.581 E5.69801
G1 X124.000 Y85.549 E5.72207
G1 X124.332 Y85.581 E5.74614
G1 X124.651 Y85.678 E5.77021
G1 X124.945 Y85.835 E5.79428
G1 X125.203 Y86.047 E5.81834
G1 X125.415 Y86.305 E5.84241
G1 X125.572 Y86.599 E5.86648
G1 X125.669 Y86.918 E5.89055
G1 X125.701 Y87.250 E5.91462
G1 X125.669 Y87.582 E5.93868
G1 X125.572 Y87.901 E5.96275
G1 X125.415 Y88.195 E5.98682
G1 X125.203 Y88.453 E6.01089
G1 X124.945 Y88.665 E6.03496
G1 X124.651 Y88.822 E6.05902
G1 X124.332 Y88.919 E6.08309
G1 X124.000 Y88.951 E6.10716
G1 X123.668 Y88.919 E6.13123
G1 X123.349 Y88.822 E6.15530
G1 X123.055 Y88.665 E6.17937
G1 X122.797 Y88.453 E6.20343
G1 X122.585 Y88.195 E6.22750
G1 X122.428 Y87.901 E6.25157
G1 X122.331 Y87.582 E6.27564
G1 X122.311 Y87.371 E6.29090
G1 X121.987 Y87.095 F5400.000
G1 X122.331 Y86.918 F4320.000 E6.13773
G1 X122.428 Y86.599 F4320.000 E6.00582
G1 X122.585 Y86.305 F4320.000 E5.87369
G1 X122.797 Y86.047 F4320.000 E5.74166
G1 X123.046 Y85.843 F4320.000 E5.61416
G1 X123.349 Y85.678 F4320.000 E5.47769
G1 X123.668 Y85.581 F4320.000 E5.34566
G1 X124.000 Y85.549 F4320.000 E5.21365
G1 X124.332 Y85.581 F4320.000 E5.08161
G1 X124.651 Y85.678 F4320.000 E4.94957
G1 X124.945 Y85.835 F4320.000 E4.81755
G1 X125.203 Y86.047 F4320.000 E4.68553
G1 X125.415 Y86.305 F4320.000 E4.55351
G1 X125.572 Y86.599 F4320.000 E4.42147
G1 X125.669 Y86.918 F4320.000 E4.28945
G1 X125.701 Y87.250 F4320.000 E4.15743
G1 X125.669 Y87.582 F4320.000 E4.02539
G1 X125.572 Y87.901 F4320.000 E3.89337
G1 X125.415 Y88.195 F4320.000 E3.76134
G1 X125.203 Y88.453 F4320.000 E3.62932
G1 X124.945 Y88.665 F4320.000 E3.49728
G1 X124.651 Y88.822 F4320.000 E3.36526
G1 X124.332 Y88.919 F4320.000 E3.23323
G1 X124.000 Y88.951 F4320.000 E3.10121
G1 X123.668 Y88.919 F4320.000 E2.96918
G1 X123.349 Y88.822 F4320.000 E2.83715
G1 X123.055 Y88.665 F4320.000 E2.70512
G1 X122.797 Y88.453 F4320.000 E2.57309
G1 X122.585 Y88.195 F4320.000 E2.44106
G1 X122.428 Y87.901 F4320.000 E2.30903
G1 X122.331 Y87.582 F4320.000 E2.17700
G1 X122.311 Y87.371 F4320.000 E2.09329
G1 F1800.000 E1.79090
G92 E0
G1 X45.572 Y116.599 F5400.000
G1 E4.50000 F1800.000
G1 X45.669 Y116.918 E4.52407 F630.000
G1 X45.701 Y117.250 E4.54814
G1 X45.669 Y117.582 E4.57220
G1 X45.572 Y117.901 E4.59627
G1 X45.415 Y118.195 E4.62034
G1 X45.203 Y118.453 E4.64441
G1 X44.945 Y118.665 E4.66848
G1 X44.651 Y118.822 E4.69254
G1 X44.332 Y118.919 E4.71661
G1 X44.000 Y118.951 E4.74068
G1 X43.668 Y118.919 E4.76475
G1 X43.349 Y118.822 E4.78882
G1 X43.055 Y118.665 E4.81288
G1 X42.797 Y118.453 E4.83695
G1 X42.585 Y118.195 E4.86102
G1 X42.428 Y117.901 E4.88509
G1 X42.331 Y117.582 E4.90916
G1 X42.299 Y117.250 E4.93322
G1 X42.331 Y116.918 E4.95729
G1 X42.428 Y116.599 E4.98136
G1 X42.585 Y116.305 E5.00543
G1 X42.797 Y116.047 E5.02949
G1 X43.055 Y115.835 E5.05356
G1 X43.349 Y115.678 E5.07763
G1 X43.668 Y115.581 E5.10170
G1 X44.000 Y115.549 E5.12577
G1 X44.332 Y115.581 E5.14983
G1 X44.651 Y115.678 E5.17390
G1 X44.945 Y115.835 E5.19797
G1 X45.203 Y116.047 E5.22204
G1 X45.415 Y116.305 E5.24611
G1 X45.531 Y116.522 E5.26391
G1 X45.901 Y116.653 F5400.000
G1 X45.669 Y116.918 F4320.000 E5.12447
G1 X45.701 Y117.250 F4320.000 E4.99245
G1 X45.669 Y117.582 F4320.000 E4.86043
G1 X45.572 Y117.901 F4320.000 E4.72839
G1 X45.415 Y118.195 F4320.000 E4.59636
G1 X45.203 Y118.453 F4320.000 E4.46433
G1 X44.945 Y118.665 F4320.000 E4.33231
G1 X44.651 Y118.822 F4320.000 E4.20028
G1 X44.332 Y118.919 F4320.000 E4.06825
G1 X44.000 Y118.951 F4320.000 E3.93622
G1 X43.668 Y118.919 F4320.000 E3.80420
G1 X43.349 Y118.822 F4320.000 E3.67218
G1 X43.055 Y118.665 F4320.000 E3.54015
G1 X42.797 Y118.453 F4320.000 E3.40813
G1 X42.585 Y118.195 F4320.000 E3.27609
G1 X42.428 Y117.901 F4320.000 E3.14406
G1 X42.331 Y117.582 F4320.000 E3.01204
G1 X42.299 Y117.250 F4320.000 E2.88003
G1 X42.331 Y116.918 F4320.000 E2.74799
G1 X42.428 Y116.599 F4320.000 E2.61596
G1 X42.585 Y116.305 F4320.000 E2.48394
G1 X42.797 Y116.047 F4320.000 E2.35191
G1 X43.055 Y115.835 F4320.000 E2.21988
G1 X43.349 Y115.678 F4320.000 E2.08786
G1 X43.668 Y115.581 F4320.000 E1.95583
G1 X44.000 Y115.549 F4320.000 E1.82378
G1 X44.332 Y115.581 F4320.000 E1.69177
G1 X44.651 Y115.678 F4320.000 E1.55975
G1 X44.945 Y115.835 F4320.000 E1.42771
G1 X45.203 Y116.047 F4320.000 E1.29568
G1 X45.415 Y116.305 F4320.000 E1.16365
G1 X45.531 Y116.522 F4320.000 E1.06598
G1 F1800.000 E0.76391
G92 E0
G1 X122.299 Y117.250 F5400.000
G1 E4.50000 F1800.000
G1 X122.331 Y116.918 E4.52407 F630.000
G1 X122.428 Y116.599 E4.54814
G1 X122.585 Y116.305 E4.57221
G1 X122.797 Y116.047 E4.59627
G1 X123.055 Y115.835 E4.62034
G1 X123.349 Y115.678 E4.64441
G1 X123.668 Y115.581 E4.66848
G1 X124.000 Y115.549 E4.69255
G1 X124.332 Y115.581 E4.71661
G1 X124.651 Y115.678 E4.74068
G1 X124.945 Y115.835 E4.76475
G1 X125.203 Y116.047 E4.78882
G1 X125.415 Y116.305 E4.81289
G1 X125.572 Y116.599 E4.83695
G1 X125.669 Y116.918 E4.86102
G1 X125.701 Y117.250 E4.88509
G1 X125.669 Y117.582 E4.90916
G1 X125.572 Y117.901 E4.93323
G1 X125.415 Y118.195 E4.95730
G1 X125.203 Y118.453 E4.98136
G1 X124.945 Y118.665 E5.00543
G1 X124.651 Y118.822 E5.02950
G1 X124.332 Y118.919 E5.05357
G1 X124.000 Y118.951 E5.07764
G1 X123.668 Y118.919 E5.10170
G1 X123.349 Y118.822 E5.12577
G1 X123.055 Y118.665 E5.14984
G1 X122.797 Y118.453 E5.17391
G1 X122.585 Y118.195 E5.19797
G1 X122.428 Y117.901 E5.22204
G1 X122.331 Y117.582 E5.24611
G1 X122.307 Y117.336 E5.26391
G1 X122.015 Y117.074 F5400.000
G1 X121.150 Y117.102 F5400.000
G1 X121.136 Y117.250 E5.27469 F630.000
G1 X121.191 Y117.809 E5.31520
G1 X121.354 Y118.346 E5.35572
G1 X121.593 Y118.793 E5.39227
G1 X120.457 Y118.793 E5.47422
G1 X120.457 Y83.498 E8.02108
G1 X122.251 Y84.042 E8.15636
G1 X123.382 Y84.153 E8.23834
G1 X123.417 Y84.330 E8.25133
G1 X122.397 Y84.878 E8.33492
G1 X121.975 Y85.225 E8.37430
G1 X121.619 Y85.659 E8.41482
G1 X121.354 Y86.154 E8.45536
G1 X121.191 Y86.691 E8.49584
G1 X121.136 Y87.250 E8.53636
G1 X121.191 Y87.809 E8.57687
G1 X121.354 Y88.346 E8.61739
G1 X121.619 Y88.841 E8.65791
G1 X121.975 Y89.275 E8.69843
G1 X122.409 Y89.631 E8.73894
G1 X122.904 Y89.896 E8.77946
G1 X123.441 Y90.059 E8.81998
G1 X124.000 Y90.114 E8.86050
G1 X124.559 Y90.059 E8.90100
G1 X125.096 Y89.896 E8.94152
G1 X125.591 Y89.631 E8.98203
G1 X126.025 Y89.275 E9.02255
G1 X126.381 Y88.841 E9.06306
G1 X126.646 Y88.346 E9.10357
G1 X126.809 Y87.809 E9.14409
G1 X126.864 Y87.250 E9.18461
G1 X126.809 Y86.691 E9.22512
G1 X126.646 Y86.154 E9.26563
G1 X126.381 Y85.659 E9.30615
G1 X126.025 Y85.225 E9.34666
G1 X125.591 Y84.869 E9.38717
G1 X124.583 Y84.330 E9.46966
G1 X124.618 Y84.153 E9.48264
G1 X125.749 Y84.042 E9.56461
G1 X127.543 Y83.498 E9.69990
G1 X127.543 Y118.793 E12.24676
G1 X126.407 Y118.793 E12.32871
G1 X126.646 Y118.346 E12.36527
G1 X126.809 Y117.809 E12.40579
